; generated by PrusaSlicer 2.5.1 on 2024-01-03 at 01:08:39 UTC

; 

; external perimeters extrusion width = 0.40mm
; perimeters extrusion width = 0.40mm
; infill extrusion width = 0.50mm
; solid infill extrusion width = 0.50mm
; top infill extrusion width = 0.50mm
; first layer extrusion width = 0.60mm

M107
;TYPE:Custom
G90 ; use absolute coordinates
M83 ; extruder relative mode
M140 S55 ; set bed temp
M190 S55 ; wait for bed temp to stabilize
M104 S150 ; set temporary nozzle temp to prevent oozing during homing
G4 S10 ; allow partial nozzle warmup
G28 ; home all axis
G29 L0; load slot 1
G29 A ; actiavte UBL
;G29 J ; tilt by 3 points
G0 Z50 F240
G0 X2 Y10 F3000
M104 S200 ; set final nozzle temp
M109 S200 ; wait for nozzle temp to stabilize
G0 Z0.28 F240
G92 E0
G1 Y140 E10 F1500 ; prime the nozzle
G0 X2.3 F5000
G92 E0
G1 Y10 E10 F1200 ; prime the nozzle
G92 E0
M900 K0.073
G21 ; set units to millimeters
G90 ; use absolute coordinates
M83 ; use relative distances for extrusion
; Filament gcode
M900 K0.073
M107
;LAYER_CHANGE
;Z:0.35
;HEIGHT:0.35
;BEFORE_LAYER_CHANGE

;0.35


G0 Z.35 F720
;AFTER_LAYER_CHANGE
;0.35
G92 E0

G1 E-.9 F3600
G0 X66.479 Y67.657 F6000
G1 E.9 F1800
M204 P500
;TYPE:Skirt/Brim
;WIDTH:0.6
G0 F1200
G1 X67.527 Y66.733 E.10672
G1 X68.473 Y66.045 E.08934
G1 X69.949 Y65.195 E.13007
G1 X71.238 Y64.637 E.10732
G1 X72.35 Y64.275 E.08933
G1 X74.016 Y63.922 E.13008
G1 X75.415 Y63.79 E.1073
G1 X144.271 Y63.78 E5.25909
G1 X145.438 Y63.853 E.08934
G1 X146.818 Y64.072 E.10671
G1 X148.762 Y64.637 E.1546
G1 X150.044 Y65.191 E.10672
G1 X151.069 Y65.755 E.08933
G1 X152.225 Y66.54 E.10671
G1 X153.12 Y67.281 E.08875
G1 X154.114 Y68.274 E.10731
G1 X154.86 Y69.175 E.08934
G1 X155.645 Y70.331 E.1067
G1 X156.205 Y71.349 E.08876
G1 X157.037 Y73.449 E.17253
G1 X157.328 Y74.582 E.08934
G1 X157.547 Y75.962 E.10672
G1 X157.624 Y77.4 E.11001
G1 X157.61 Y143.185 E5.02453
G1 X157.331 Y145.406 E.171
G1 X156.763 Y147.362 E.15554
G1 X155.805 Y149.399 E.17195
G1 X155.178 Y150.387 E.08932
G1 X154.322 Y151.491 E.10671
G1 X153.521 Y152.343 E.08934
G1 X152.473 Y153.267 E.10672
G1 X151.527 Y153.955 E.08933
G1 X150.044 Y154.809 E.13067
G1 X148.474 Y155.467 E.13008
G1 X147.137 Y155.857 E.10636
G1 X145.976 Y156.079 E.09028
G1 X144.271 Y156.22 E.13066
G1 X75.415 Y156.21 E5.25909
G1 X74.024 Y156.079 E.10671
G1 X72.883 Y155.861 E.08874
G1 X70.746 Y155.169 E.17159
G1 X68.937 Y154.249 E.15495
G1 X67.119 Y152.93 E.1716
G1 X66.257 Y152.121 E.09028
G1 X65.333 Y151.073 E.10672
G1 X64.645 Y150.127 E.08934
G1 X63.795 Y148.651 E.13007
G1 X63.237 Y147.362 E.1073
G1 X62.74 Y145.725 E.13066
G1 X62.453 Y144.038 E.13067
G1 X62.38 Y142.871 E.08934
G1 X62.39 Y76.815 E5.04522
G1 X62.672 Y74.582 E.17194
G1 X63.237 Y72.638 E.1546
G1 X64.195 Y70.601 E.17195
G1 X64.822 Y69.613 E.08932
G1 X65.678 Y68.509 E.10671
G1 X66.438 Y67.701 E.08476
G0 X66.82 Y68.06 F6000
G1 F1200
G1 X67.849 Y67.148 E.10499
G1 X68.768 Y66.479 E.08682
G1 X70.187 Y65.662 E.12507
G1 X71.416 Y65.13 E.10225
G1 X72.497 Y64.779 E.08681
G1 X74.099 Y64.441 E.12508
G1 X75.432 Y64.314 E.10223
G1 X144.254 Y64.304 E5.25657
G1 X145.389 Y64.376 E.08682
G1 X146.704 Y64.584 E.10168
G1 X148.584 Y65.13 E.14956
G1 X149.806 Y65.659 E.10169
G1 X150.802 Y66.207 E.08682
G1 X151.903 Y66.955 E.10168
G1 X152.774 Y67.675 E.08627
G1 X153.72 Y68.621 E.10224
G1 X154.445 Y69.497 E.08682
G1 X155.193 Y70.598 E.10167
G1 X155.738 Y71.587 E.08628
G1 X156.533 Y73.595 E.16495
G1 X156.816 Y74.696 E.08682
G1 X157.024 Y76.011 E.10168
G1 X157.1 Y77.4 E.10624
G1 X157.086 Y143.168 E5.02327
G1 X156.818 Y145.292 E.16349
G1 X156.27 Y147.184 E.15047
G1 X155.353 Y149.132 E.16441
G1 X154.744 Y150.092 E.08681
G1 X153.928 Y151.143 E.10168
G1 X153.15 Y151.972 E.08682
G1 X152.151 Y152.852 E.10168
G1 X151.232 Y153.521 E.08682
G1 X149.806 Y154.341 E.12563
G1 X148.296 Y154.974 E.12508
G1 X147.022 Y155.345 E.10133
G1 X145.894 Y155.56 E.08773
G1 X144.254 Y155.696 E.12563
G1 X75.432 Y155.686 E5.25657
G1 X74.106 Y155.56 E.10168
G1 X72.997 Y155.349 E.08626
G1 X70.954 Y154.687 E.16405
G1 X69.204 Y153.797 E.14991
G1 X67.466 Y152.536 E.16405
G1 X66.628 Y151.75 E.08772
G1 X65.748 Y150.751 E.10168
G1 X65.079 Y149.832 E.08683
G1 X64.262 Y148.412 E.12507
G1 X63.73 Y147.184 E.10223
G1 X63.253 Y145.61 E.12563
G1 X62.976 Y143.989 E.12563
G1 X62.904 Y142.854 E.08683
G1 X62.914 Y76.832 E5.0427
G1 X63.184 Y74.696 E.1644
G1 X63.73 Y72.816 E.14956
G1 X64.647 Y70.868 E.16441
G1 X65.256 Y69.909 E.08681
G1 X66.072 Y68.857 E.10168
G1 X66.779 Y68.103 E.07892
G0 X67.162 Y68.463 F6000
G1 F1200
G1 X68.17 Y67.562 E.10327
G1 X69.063 Y66.914 E.0843
G1 X70.426 Y66.13 E.12007
G1 X71.594 Y65.624 E.09717
G1 X72.643 Y65.283 E.08429
G1 X74.182 Y64.959 E.12008
G1 X75.448 Y64.839 E.09716
G1 X144.238 Y64.829 E5.25405
G1 X145.34 Y64.898 E.0843
G1 X146.589 Y65.096 E.09664
G1 X148.406 Y65.624 E.14453
G1 X149.568 Y66.127 E.09665
G1 X150.535 Y66.659 E.0843
G1 X151.581 Y67.37 E.09664
G1 X152.427 Y68.069 E.08379
G1 X153.327 Y68.968 E.09717
G1 X154.03 Y69.819 E.0843
G1 X154.741 Y70.865 E.09663
G1 X155.27 Y71.826 E.08379
G1 X156.029 Y73.742 E.15737
G1 X156.304 Y74.811 E.0843
G1 X156.502 Y76.061 E.09665
G1 X156.575 Y77.4 E.10246
G1 X156.561 Y143.152 E5.02201
G1 X156.306 Y145.178 E.15598
G1 X155.776 Y147.006 E.1454
G1 X154.901 Y148.865 E.15686
G1 X154.31 Y149.796 E.08429
G1 X153.534 Y150.796 E.09664
G1 X152.432 Y151.927 E.1206
G1 X151.581 Y152.63 E.08431
G1 X150.535 Y153.341 E.09665
G1 X149.137 Y154.076 E.1206
G1 X147.658 Y154.629 E.12059
G1 X146.596 Y154.902 E.08379
G1 X145.34 Y155.102 E.09716
G1 X144 Y155.175 E.10246
G1 X75.448 Y155.161 E5.23588
G1 X74.188 Y155.042 E.09664
G1 X73.111 Y154.837 E.08378
G1 X71.162 Y154.205 E.1565
G1 X69.471 Y153.345 E.14488
G1 X67.812 Y152.142 E.1565
G1 X66.999 Y151.379 E.08517
G1 X66.162 Y150.43 E.09665
G1 X65.513 Y149.537 E.08431
G1 X64.73 Y148.174 E.12008
G1 X64.224 Y147.006 E.09716
G1 X63.765 Y145.496 E.1206
G1 X63.498 Y143.939 E.1206
G1 X63.429 Y142.838 E.08431
G1 X63.439 Y76.848 E5.04018
G1 X63.696 Y74.811 E.15685
G1 X64.224 Y72.994 E.14453
G1 X65.099 Y71.135 E.15686
G1 X65.69 Y70.204 E.08429
G1 X66.466 Y69.204 E.09664
G1 X67.121 Y68.506 E.07308
G0 X67.498 Y68.884 F6000
G1 F1200
G1 X67.915 Y68.467 E.04503
G1 X68.74 Y67.784 E.08179
G1 X69.732 Y67.11 E.09161
G1 X71.071 Y66.406 E.11556
G1 X72.067 Y66.012 E.08179
G1 X73.219 Y65.677 E.09161
G1 X74.264 Y65.477 E.0813
G1 X75.465 Y65.364 E.09209
G1 X144.221 Y65.354 E5.25153
G1 X145.29 Y65.421 E.08178
G1 X146.475 Y65.609 E.09161
G1 X148.229 Y66.118 E.13949
G1 X149.329 Y66.594 E.09162
G1 X150.268 Y67.11 E.08178
G1 X151.26 Y67.784 E.09161
G1 X152.08 Y68.463 E.0813
G1 X152.933 Y69.315 E.0921
G1 X153.616 Y70.14 E.08178
G1 X154.29 Y71.132 E.0916
G1 X154.803 Y72.065 E.08131
G1 X155.525 Y73.888 E.14979
G1 X155.791 Y74.925 E.08178
G1 X155.979 Y76.11 E.09161
G1 X156.05 Y77.4 E.09868
G1 X156.036 Y143.135 E5.02075
G1 X155.924 Y144.33 E.09162
G1 X155.724 Y145.375 E.08129
G1 X155.119 Y147.24 E.14979
G1 X154.29 Y148.868 E.13951
G1 X153.616 Y149.86 E.0916
G1 X152.933 Y150.685 E.08178
G1 X152.085 Y151.533 E.09161
G1 X151.26 Y152.216 E.08179
G1 X150.268 Y152.89 E.09161
G1 X148.929 Y153.594 E.11556
G1 X147.512 Y154.125 E.11556
G1 X146.481 Y154.39 E.08131
G1 X145.29 Y154.579 E.09209
G1 X144 Y154.65 E.09868
G1 X75.465 Y154.636 E5.23462
G1 X74.271 Y154.524 E.09161
G1 X73.225 Y154.324 E.0813
G1 X71.37 Y153.723 E.14895
G1 X69.738 Y152.893 E.13984
G1 X68.74 Y152.216 E.09209
G1 X67.92 Y151.537 E.0813
G1 X67.067 Y150.685 E.0921
G1 X66.384 Y149.86 E.08178
G1 X65.553 Y148.601 E.1152
G1 X65.006 Y147.529 E.09197
G1 X64.612 Y146.533 E.08179
G1 X64.209 Y145.075 E.11556
G1 X64.021 Y143.89 E.09161
G1 X63.95 Y142.6 E.09868
G1 X63.964 Y76.865 E5.02075
G1 X64.209 Y74.925 E.14931
G1 X64.475 Y73.888 E.08178
G1 X64.881 Y72.76 E.09161
G1 X65.71 Y71.132 E.1395
G1 X66.384 Y70.14 E.0916
G1 X67.067 Y69.315 E.08178
G1 X67.456 Y68.926 E.042
G0 X67.826 Y69.297 F6000
G1 F1200
G1 X68.262 Y68.861 E.0471
G1 X69.062 Y68.199 E.07927
G1 X69.999 Y67.562 E.08658
G1 X71.28 Y66.888 E.11053
G1 X72.245 Y66.506 E.07927
G1 X73.333 Y66.189 E.08657
G1 X74.347 Y65.996 E.07881
G1 X75.481 Y65.888 E.08702
G1 X144.205 Y65.878 E5.24901
G1 X145.241 Y65.943 E.07926
G1 X146.36 Y66.121 E.08657
G1 X148.051 Y66.612 E.13446
G1 X149.091 Y67.062 E.08658
G1 X150.001 Y67.562 E.07926
G1 X150.938 Y68.199 E.08657
G1 X151.733 Y68.857 E.07882
G1 X152.539 Y69.662 E.08703
G1 X153.201 Y70.462 E.07927
G1 X153.838 Y71.399 E.08656
G1 X154.335 Y72.304 E.07883
G1 X155.021 Y74.035 E.14221
G1 X155.279 Y75.04 E.07926
G1 X155.457 Y76.159 E.08658
G1 X155.525 Y77.4 E.09491
G1 X155.512 Y143.119 E5.01949
G1 X155.405 Y144.247 E.08658
G1 X155.212 Y145.261 E.07881
G1 X154.637 Y147.032 E.14221
G1 X153.838 Y148.601 E.13447
G1 X153.201 Y149.538 E.08656
G1 X152.539 Y150.338 E.07926
G1 X151.738 Y151.139 E.08658
G1 X150.606 Y152.042 E.11053
G1 X149.73 Y152.598 E.07927
G1 X148.72 Y153.112 E.08657
G1 X147.366 Y153.621 E.11052
G1 X146.366 Y153.878 E.07882
G1 X145.241 Y154.057 E.08702
G1 X144 Y154.125 E.09491
G1 X75.481 Y154.112 E5.23336
G1 X74.353 Y154.005 E.08657
G1 X73.339 Y153.812 E.07881
G1 X71.578 Y153.241 E.14141
G1 X70.005 Y152.441 E.13481
G1 X69.062 Y151.801 E.08702
G1 X68.267 Y151.143 E.07882
G1 X67.461 Y150.338 E.08703
G1 X66.799 Y149.538 E.07926
G1 X66.005 Y148.334 E.11017
G1 X65.488 Y147.32 E.08693
G1 X65.106 Y146.355 E.07927
G1 X64.721 Y144.96 E.11053
G1 X64.543 Y143.841 E.08658
G1 X64.475 Y142.6 E.09491
G1 X64.488 Y76.881 E5.01949
G1 X64.721 Y75.04 E.14176
G1 X64.979 Y74.035 E.07926
G1 X65.363 Y72.968 E.08658
G1 X66.162 Y71.399 E.13447
G1 X66.799 Y70.462 E.08657
G1 X67.461 Y69.662 E.07926
G1 X67.784 Y69.339 E.0349
G1 E-.63 F3600
;WIPE_START
G0 F4800
G1 X68.038 Y69.085 E-.2565
;WIPE_END
G1 E-.0135 F3600
G0 X75.209 Y76.222 F6000
G1 X75.121 Y76.351
G1 X75.006 Y76.558
G1 X74.91 Y76.774
G1 X74.835 Y76.999
G1 X74.781 Y77.229
G1 X74.748 Y77.464
G1 X74.737 Y77.7
G1 X74.748 Y77.936
G1 X74.781 Y78.171
G1 X74.835 Y78.401
G1 X74.91 Y78.626
G1 X75.006 Y78.842
G1 X75.121 Y79.049
G1 X75.255 Y79.244
G1 X75.406 Y79.427
G1 X75.573 Y79.594
G1 X140.973 Y144.194
G1 X141.156 Y144.345
G1 X141.351 Y144.479
G1 X141.558 Y144.594
G1 X141.774 Y144.69
G1 X141.999 Y144.765
G1 X142.229 Y144.819
G1 X142.464 Y144.852
G1 X142.481 Y144.853
G1 X142.532 Y144.855
G1 X143.903 Y146.258
G1 E.9 F1800
;TYPE:Perimeter
;WIDTH:0.584978
G0 F1200
G1 X143.537 Y146.278 E.0272
;WIDTH:0.54439
G1 X143.171 Y146.298 E.02503
;WIDTH:0.503802
G1 X142.484 Y146.304 E.04285
;WIDTH:0.528456
G1 X142.25 Y146.286 E.01551
;WIDTH:0.564228
G1 X142.015 Y146.268 E.01673
;WIDTH:0.6
G1 X141.781 Y146.25 E.01796
G1 X78.219 Y146.25 E4.85475
G1 X77.985 Y146.268 E.01796
;WIDTH:0.564228
G1 X77.75 Y146.286 E.01673
;WIDTH:0.528456
G1 X77.516 Y146.304 E.01551
;WIDTH:0.505283
G1 X76.812 Y146.298 E.04403
;WIDTH:0.552641
G1 X76.423 Y146.274 E.02708
;WIDTH:0.6
G1 X75.308 Y146.174 E.08554
G1 X74.676 Y145.998 E.05007
G1 X74.029 Y145.668 E.05553
G1 X73.623 Y145.361 E.03881
G1 X73.126 Y144.837 E.05519
G1 X72.83 Y144.399 E.04041
G1 X72.617 Y143.961 E.03716
G1 X72.42 Y143.282 E.05397
G1 X72.35 Y142.537 E.05719
G1 X72.35 Y77.463 E4.97028
G1 X72.42 Y76.717 E.05722
G1 X72.603 Y76.088 E.04997
G1 X72.826 Y75.608 E.04047
G1 X73.16 Y75.122 E.04506
G1 X73.649 Y74.614 E.0538
G1 X74.078 Y74.302 E.04053
G1 X74.53 Y74.073 E.0387
G1 X75.144 Y73.857 E.04969
G1 X75.65 Y73.774 E.03919
G1 X76.62 Y73.732 E.07411
;WIDTH:0.564183
G1 X76.855 Y73.714 E.01683
;WIDTH:0.528366
G1 X77.091 Y73.696 E.01559
;WIDTH:0.51238
G1 X77.855 Y73.706 E.04861
;WIDTH:0.55619
G1 X78.178 Y73.728 E.02269
;WIDTH:0.6
G1 X78.502 Y73.75 E.02476
G1 X141.784 Y73.75 E4.83338
G1 X142.02 Y73.732 E.01806
;WIDTH:0.56416
G1 X142.255 Y73.714 E.01682
;WIDTH:0.52832
G1 X142.491 Y73.696 E.01559
;WIDTH:0.51231
G1 X143.255 Y73.706 E.0486
;WIDTH:0.556155
G1 X143.612 Y73.728 E.02508
;WIDTH:0.6
G1 X144.752 Y73.837 E.08742
G1 X145.355 Y74.019 E.04813
G1 X146.005 Y74.357 E.05597
G1 X146.476 Y74.732 E.04597
G1 X146.926 Y75.226 E.05101
G1 X147.173 Y75.605 E.03461
G1 X147.391 Y76.057 E.03832
G1 X147.548 Y76.572 E.04109
G1 X147.64 Y77.15 E.04471
G1 X147.65 Y142.537 E4.99416
G1 X147.62 Y143.037 E.03825
G1 X147.466 Y143.727 E.05397
G1 X147.214 Y144.307 E.04833
G1 X146.977 Y144.703 E.03524
G1 X146.683 Y145.068 E.03578
G1 X146.34 Y145.397 E.03633
G1 X145.916 Y145.685 E.03914
;WIDTH:0.640245
G1 X145.793 Y145.727 E.01068
;WIDTH:0.680491
G1 X145.67 Y145.769 E.01144
;WIDTH:0.720737
G1 X145.547 Y145.811 E.0122
;WIDTH:0.760983
G1 X145.424 Y145.853 E.01296
;WIDTH:0.801229
G1 X145.082 Y145.974 E.03838
;WIDTH:0.767455
G1 X144.863 Y146.054 E.02352
;WIDTH:0.733681
G1 X144.643 Y146.133 E.02237
;WIDTH:0.699907
G1 X144.396 Y146.175 E.02274
;WIDTH:0.661597
G1 X144.15 Y146.216 E.02135
;WIDTH:0.623287
G1 X143.962 Y146.248 E.01517
G0 X143.962 Y146.775 F6000
;WIDTH:0.6
G1 F1200
G1 X76.026 Y146.775 E5.18882
G1 X75.476 Y146.741 E.04206
G1 X74.963 Y146.643 E.03994
G1 X74.475 Y146.484 E.03917
G1 X73.754 Y146.116 E.06184
G1 X73.343 Y145.818 E.03878
G1 X72.955 Y145.454 E.04062
G1 X72.624 Y145.053 E.03973
G1 X72.343 Y144.611 E.04004
G1 X72.125 Y144.147 E.03912
G1 X71.902 Y143.381 E.06092
G1 X71.825 Y142.562 E.06287
G1 X71.825 Y77.438 E4.97406
G1 X71.902 Y76.618 E.0629
G1 X72.125 Y75.852 E.06088
G1 X72.343 Y75.389 E.03913
G1 X72.623 Y74.947 E.03994
G1 X72.958 Y74.543 E.04008
G1 X73.34 Y74.184 E.04003
G1 X73.764 Y73.876 E.04003
G1 X74.213 Y73.629 E.03912
G1 X74.975 Y73.355 E.06185
G1 X75.48 Y73.259 E.03933
G1 X76.026 Y73.225 E.04174
G1 X143.979 Y73.225 E5.19011
G1 X144.524 Y73.259 E.04171
G1 X145.037 Y73.357 E.03995
G1 X145.525 Y73.516 E.03917
G1 X146.246 Y73.884 E.06184
G1 X146.707 Y74.229 E.044
G1 X147.088 Y74.598 E.04046
G1 X147.42 Y75.016 E.04079
G1 X147.687 Y75.453 E.03911
G1 X147.918 Y75.98 E.04399
G1 X148.064 Y76.473 E.03927
G1 X148.165 Y77.125 E.05037
G1 X148.175 Y142.574 E4.99889
G1 X148.141 Y143.111 E.0411
G1 X147.967 Y143.89 E.06092
G1 X147.65 Y144.622 E.06092
G1 X147.377 Y145.053 E.039
G1 X147.042 Y145.457 E.04008
G1 X146.669 Y145.808 E.03912
G1 X146.066 Y146.217 E.05569
G1 X145.551 Y146.474 E.04392
G1 X144.781 Y146.698 E.06125
G1 X144.021 Y146.769 E.05827
G0 X143.986 Y147.3 F6000
;TYPE:External perimeter
G0 F1200
G1 X76.009 Y147.3 E5.19196
G1 X75.41 Y147.262 E.04584
G1 X74.832 Y147.152 E.04499
G1 X74.273 Y146.971 E.04485
G1 X73.479 Y146.565 E.06814
G1 X73.008 Y146.223 E.04446
G1 X72.572 Y145.814 E.04567
G1 X72.198 Y145.362 E.04477
G1 X71.882 Y144.864 E.04508
G1 X71.632 Y144.333 E.0448
G1 X71.384 Y143.48 E.06786
G1 X71.3 Y142.586 E.06854
G1 X71.3 Y77.413 E4.97783
G1 X71.385 Y76.519 E.06859
G1 X71.632 Y75.666 E.06782
G1 X71.882 Y75.136 E.0448
G1 X72.198 Y74.638 E.04499
G1 X72.574 Y74.183 E.04512
G1 X73.004 Y73.779 E.04507
G1 X73.482 Y73.432 E.04508
G1 X73.996 Y73.15 E.0448
G1 X74.836 Y72.847 E.06818
G1 X75.415 Y72.737 E.04501
G1 X76.009 Y72.7 E.0455
G1 X143.995 Y72.7 E5.19263
G1 X144.503 Y72.732 E.03885
G1 X145.079 Y72.831 E.04465
G1 X145.614 Y72.993 E.0427
G1 X146.043 Y73.191 E.03604
G1 X146.622 Y73.508 E.05045
G1 X147.067 Y73.846 E.04267
G1 X147.492 Y74.263 E.04552
G1 X147.863 Y74.734 E.04581
G1 X148.162 Y75.229 E.04413
G1 X148.418 Y75.818 E.04905
G1 X148.579 Y76.375 E.0443
G1 X148.69 Y77.1 E.05603
G1 X148.7 Y142.591 E5.00204
G1 X148.663 Y143.185 E.04552
G1 X148.469 Y144.053 E.06786
G1 X148.116 Y144.868 E.06787
G1 X147.802 Y145.362 E.04467
G1 X147.426 Y145.817 E.04512
G1 X146.998 Y146.219 E.0448
G1 X146.26 Y146.72 E.06814
G1 X145.737 Y146.966 E.04414
G1 X144.88 Y147.216 E.06821
G1 X144.046 Y147.294 E.06396
G0 X143.765 Y146.967 F6000
G1 E-.9 F3600
G0 X77.576 Y81.324 F6000
G1 E.9 F1800
;TYPE:Perimeter
G0 F1200
G1 X77.084 Y81.34 E.03757
G1 X76.419 Y81.238 E.0514
G1 X75.777 Y81.013 E.05201
G1 X75.2 Y80.681 E.05077
G1 X74.507 Y80.037 E.0723
G1 X74.092 Y79.433 E.05599
G1 X73.828 Y78.814 E.05139
G1 X73.682 Y78.157 E.05139
G1 X73.66 Y77.485 E.05133
G1 X73.739 Y76.997 E.0378
G1 X73.858 Y76.495 E.03939
G1 X74.126 Y75.909 E.04922
G1 X74.495 Y75.374 E.0496
G1 X74.956 Y74.911 E.04991
G1 X75.425 Y74.58 E.04385
G1 X75.784 Y74.384 E.03124
G1 X76.422 Y74.161 E.05158
