; generated by PrusaSlicer 2.5.1 on 2024-01-04 at 08:26:12 UTC

; 

; external perimeters extrusion width = 0.40mm
; perimeters extrusion width = 0.40mm
; infill extrusion width = 0.50mm
; solid infill extrusion width = 0.50mm
; top infill extrusion width = 0.50mm
; first layer extrusion width = 0.50mm

M107
;TYPE:Custom
G90 ; use absolute coordinates
M83 ; extruder relative mode
M140 S55 ; set bed temp
M190 S55 ; wait for bed temp to stabilize
M104 S150 ; set temporary nozzle temp to prevent oozing during homing
G4 S10 ; allow partial nozzle warmup
G28 ; home all axis
G29 L0; load slot 1
G29 A ; actiavte UBL
;G29 J ; tilt by 3 points
G0 Z50 F240
G0 X2 Y10 F3000
M104 S205 ; set final nozzle temp
M109 S205 ; wait for nozzle temp to stabilize
G0 Z0.28 F240
G92 E0
G1 Y140 E10 F1500 ; prime the nozzle
G0 X2.3 F5000
G92 E0
G1 Y10 E10 F1200 ; prime the nozzle
G92 E0
M900 K0.073
G21 ; set units to millimeters
G90 ; use absolute coordinates
M83 ; use relative distances for extrusion
; Filament gcode
M900 K0.073
M107
;LAYER_CHANGE
;Z:0.25
;HEIGHT:0.25
;BEFORE_LAYER_CHANGE

;0.25


G0 Z.25 F720
;AFTER_LAYER_CHANGE
;0.25
G92 E0

G1 E-1.25 F3000
G0 X59.993 Y56.911 F6000
G1 E1.25 F2700
M204 P500
;TYPE:Skirt/Brim
;WIDTH:0.5
G0 F1200
G1 X61.182 Y55.863 E.06913
G1 X62.471 Y54.941 E.06912
G1 X63.601 Y54.28 E.05708
G1 X65.037 Y53.609 E.06912
G1 X66.533 Y53.086 E.06912
G1 X68.074 Y52.716 E.06913
G1 X69.645 Y52.503 E.06911
G1 X153.004 Y50.485 E3.63629
G1 X154.335 Y50.564 E.05815
G1 X155.631 Y50.75 E.05708
G1 X156.93 Y51.05 E.05814
G1 X158.435 Y51.548 E.06912
G1 X159.882 Y52.195 E.06912
G1 X161.022 Y52.836 E.05707
G1 X162.327 Y53.737 E.06912
G1 X163.349 Y54.593 E.05814
G1 X164.278 Y55.515 E.05708
G1 X165.143 Y56.53 E.05815
G1 X166.054 Y57.826 E.06911
G1 X166.706 Y58.961 E.05708
G1 X167.27 Y60.17 E.05815
G1 X167.804 Y61.662 E.06911
G1 X168.131 Y62.929 E.05709
G1 X168.354 Y64.244 E.05815
G1 X168.471 Y65.759 E.06628
G1 X170.425 Y145.666 E3.48571
G1 X170.336 Y146.997 E.05815
G1 X170.139 Y148.29 E.05708
G1 X169.828 Y149.587 E.05816
G1 X169.417 Y150.83 E.05707
G1 X168.894 Y152.056 E.05814
G1 X168.282 Y153.213 E.05707
G1 X167.561 Y154.334 E.05815
G1 X166.763 Y155.372 E.05708
G1 X165.686 Y156.535 E.06911
G1 X164.497 Y157.583 E.06913
G1 X163.209 Y158.507 E.06913
G1 X161.587 Y159.419 E.08114
G1 X160.129 Y160.041 E.06912
G1 X158.615 Y160.512 E.06914
G1 X157.062 Y160.829 E.06913
G1 X155.234 Y160.998 E.08008
G1 X71.158 Y162.201 E3.66684
G1 X69.828 Y162.1 E.05815
G1 X68.537 Y161.892 E.05706
G1 X67.243 Y161.571 E.05815
G1 X66.003 Y161.149 E.05707
G1 X64.781 Y160.616 E.05815
G1 X63.63 Y159.994 E.05708
G1 X62.515 Y159.263 E.05813
G1 X61.484 Y158.457 E.05708
G1 X60.33 Y157.37 E.06912
G1 X59.291 Y156.173 E.06912
G1 X58.233 Y154.642 E.08117
G1 X57.48 Y153.247 E.06911
G1 X56.871 Y151.784 E.06913
G1 X56.412 Y150.267 E.06912
G1 X56.108 Y148.711 E.06912
G1 X55.954 Y146.881 E.08009
G1 X55.245 Y67.776 E3.44985
G1 X55.333 Y66.47 E.05706
G1 X55.533 Y65.152 E.05814
G1 X55.839 Y63.879 E.05709
G1 X56.257 Y62.613 E.05814
G1 X56.77 Y61.409 E.05708
G1 X57.395 Y60.231 E.05813
G1 X58.102 Y59.13 E.05708
G1 X58.915 Y58.073 E.05814
G1 X59.952 Y56.955 E.0665
G0 X60.279 Y57.258 F6000
G1 F1200
G1 X61.457 Y56.215 E.06863
G1 X62.709 Y55.318 E.06716
G1 X63.813 Y54.673 E.05577
G1 X65.209 Y54.021 E.06716
G1 X66.662 Y53.513 E.06716
G1 X68.16 Y53.154 E.06716
G1 X69.686 Y52.947 E.06715
G1 X153 Y50.932 E3.63433
G1 X154.287 Y51.007 E.05619
G1 X155.553 Y51.189 E.05577
G1 X156.808 Y51.479 E.05618
G1 X158.27 Y51.963 E.06716
G1 X159.676 Y52.591 E.06716
G1 X160.791 Y53.218 E.05577
G1 X162.058 Y54.093 E.06715
G1 X163.045 Y54.92 E.05618
G1 X163.953 Y55.821 E.05577
G1 X164.789 Y56.802 E.05619
G1 X165.675 Y58.061 E.06715
G1 X166.311 Y59.17 E.05577
G1 X166.856 Y60.338 E.05619
G1 X167.376 Y61.787 E.06715
G1 X167.695 Y63.026 E.05578
G1 X167.91 Y64.296 E.05619
G1 X168.025 Y65.77 E.06447
G1 X169.983 Y145.407 E3.47392
G1 X169.919 Y146.684 E.05578
G1 X169.746 Y147.961 E.05617
G1 X169.469 Y149.209 E.05578
G1 X169.086 Y150.439 E.05618
G1 X168.604 Y151.624 E.05577
G1 X167.894 Y152.991 E.06715
G1 X167.198 Y154.074 E.05619
G1 X166.419 Y155.089 E.05577
G1 X165.372 Y156.218 E.06715
G1 X164.216 Y157.236 E.06717
G1 X162.964 Y158.134 E.06717
G1 X161.395 Y159.016 E.07853
G1 X159.978 Y159.62 E.06716
G1 X158.508 Y160.079 E.06717
G1 X156.999 Y160.387 E.06716
G1 X155.215 Y160.552 E.07812
G1 X71.169 Y161.755 E3.66553
G1 X69.885 Y161.657 E.05619
G1 X68.622 Y161.454 E.05575
G1 X67.372 Y161.143 E.05618
G1 X66.161 Y160.732 E.05576
G1 X64.98 Y160.216 E.05619
G1 X63.855 Y159.608 E.05577
G1 X62.778 Y158.903 E.05617
G1 X61.77 Y158.115 E.05577
G1 X60.649 Y157.059 E.06716
G1 X59.641 Y155.895 E.06716
G1 X58.616 Y154.413 E.07856
G1 X57.884 Y153.059 E.06715
G1 X57.292 Y151.637 E.06717
G1 X56.846 Y150.163 E.06716
G1 X56.551 Y148.651 E.06716
G1 X56.4 Y146.866 E.07813
G1 X55.691 Y67.791 E3.44855
G1 X55.777 Y66.515 E.05576
G1 X55.971 Y65.241 E.05618
G1 X56.269 Y63.998 E.05578
G1 X56.673 Y62.774 E.05618
G1 X57.175 Y61.598 E.05577
G1 X57.778 Y60.46 E.05617
G1 X58.469 Y59.384 E.05577
G1 X59.254 Y58.362 E.05618
G1 X60.238 Y57.302 E.06307
G0 X60.563 Y57.611 F6000
G1 F1200
G1 X60.679 Y57.49 E.0073
G1 X61.732 Y56.567 E.06109
G1 X62.947 Y55.696 E.0652
G1 X64.244 Y54.952 E.0652
G1 X65.609 Y54.342 E.06521
G1 X67.029 Y53.873 E.06519
G1 X68.246 Y53.592 E.05447
G1 X69.727 Y53.392 E.06519
G1 X152.997 Y51.378 E3.63237
G1 X154.238 Y51.451 E.05423
G1 X155.474 Y51.629 E.05446
G1 X156.686 Y51.908 E.05422
G1 X158.105 Y52.377 E.0652
G1 X159.25 Y52.877 E.05446
G1 X160.559 Y53.599 E.0652
G1 X161.789 Y54.449 E.06519
G1 X162.742 Y55.248 E.05422
G1 X163.629 Y56.127 E.05446
G1 X164.435 Y57.074 E.05423
G1 X165.295 Y58.296 E.06519
G1 X165.917 Y59.379 E.05446
G1 X166.443 Y60.506 E.05423
G1 X166.948 Y61.913 E.06519
G1 X167.259 Y63.123 E.05447
G1 X167.467 Y64.349 E.05423
G1 X167.579 Y65.781 E.06267
G1 X169.533 Y145.651 E3.4841
G1 X169.449 Y146.892 E.05422
G1 X169.261 Y148.126 E.05446
G1 X168.971 Y149.336 E.05424
G1 X168.58 Y150.521 E.05445
G1 X168.092 Y151.665 E.05422
G1 X167.507 Y152.769 E.05446
G1 X166.835 Y153.815 E.05422
G1 X165.914 Y154.992 E.0652
G1 X164.879 Y156.072 E.06521
G1 X163.741 Y157.041 E.0652
G1 X162.296 Y158.022 E.07617
G1 X160.975 Y158.722 E.0652
G1 X159.59 Y159.285 E.06519
G1 X158.156 Y159.707 E.06521
G1 X156.686 Y159.981 E.0652
G1 X154.994 Y160.112 E.07399
G1 X71.432 Y161.315 E3.64443
G1 X70.186 Y161.241 E.05445
G1 X68.708 Y161.016 E.0652
G1 X67.501 Y160.716 E.05422
G1 X66.319 Y160.314 E.05446
G1 X65.179 Y159.817 E.05422
G1 X64.081 Y159.223 E.05446
G1 X63.041 Y158.542 E.05421
G1 X62.057 Y157.773 E.05447
G1 X60.969 Y156.747 E.0652
G1 X59.99 Y155.617 E.0652
G1 X59 Y154.185 E.07594
G1 X58.289 Y152.87 E.06519
G1 X57.714 Y151.49 E.06521
G1 X57.28 Y150.059 E.0652
G1 X56.993 Y148.591 E.0652
G1 X56.846 Y146.851 E.07617
G1 X56.137 Y67.806 E3.44724
G1 X56.25 Y66.315 E.0652
G1 X56.459 Y65.084 E.05445
G1 X56.769 Y63.88 E.05423
G1 X57.18 Y62.701 E.05446
G1 X57.687 Y61.565 E.05422
G1 X58.29 Y60.472 E.05446
G1 X58.98 Y59.437 E.05422
G1 X59.758 Y58.46 E.05446
G1 X60.522 Y57.655 E.04842
G0 X60.848 Y57.967 F6000
G1 F1200
G1 X61.101 Y57.703 E.01597
G1 X62.206 Y56.763 E.06324
G1 X63.399 Y55.939 E.06324
G1 X64.528 Y55.309 E.05638
G1 X65.767 Y54.76 E.05913
G1 X67.144 Y54.304 E.06323
G1 X68.559 Y53.99 E.06324
G1 X69.999 Y53.819 E.06324
G1 X152.993 Y51.824 E3.62032
G1 X154.189 Y51.895 E.05227
G1 X155.396 Y52.068 E.05315
G1 X156.564 Y52.338 E.05226
G1 X157.941 Y52.792 E.06324
G1 X159.058 Y53.28 E.05315
G1 X160.327 Y53.981 E.06324
G1 X161.52 Y54.806 E.06323
G1 X162.438 Y55.575 E.05226
G1 X163.304 Y56.433 E.05316
G1 X164.081 Y57.346 E.05227
G1 X164.916 Y58.531 E.06323
G1 X165.522 Y59.588 E.05315
G1 X166.029 Y60.674 E.05227
G1 X166.519 Y62.039 E.06323
G1 X166.823 Y63.219 E.05316
G1 X167.024 Y64.401 E.05227
G1 X167.133 Y65.792 E.06086
G1 X169.091 Y145.392 E3.47231
G1 X169.029 Y146.609 E.05317
G1 X168.823 Y148.044 E.06323
G1 X168.543 Y149.21 E.05228
G1 X168.161 Y150.367 E.05314
G1 X167.691 Y151.469 E.05226
G1 X167.12 Y152.546 E.05315
G1 X166.472 Y153.555 E.05226
G1 X165.579 Y154.697 E.06323
G1 X164.576 Y155.744 E.06325
G1 X163.472 Y156.685 E.06324
G1 X162.065 Y157.641 E.07421
G1 X160.783 Y158.319 E.06323
G1 X159.44 Y158.865 E.06323
G1 X158.048 Y159.273 E.06325
G1 X156.622 Y159.539 E.06324
G1 X154.988 Y159.666 E.07149
G1 X71.444 Y160.869 E3.64366
G1 X70.227 Y160.797 E.05315
G1 X68.794 Y160.578 E.06324
G1 X67.631 Y160.289 E.05226
G1 X66.477 Y159.897 E.05315
G1 X65.378 Y159.417 E.05226
G1 X64.306 Y158.838 E.05315
G1 X63.304 Y158.181 E.05225
G1 X62.343 Y157.431 E.05316
G1 X61.289 Y156.435 E.06324
G1 X60.339 Y155.339 E.06324
G1 X59.383 Y153.956 E.07333
G1 X58.693 Y152.681 E.06323
G1 X58.135 Y151.342 E.06325
G1 X57.714 Y149.955 E.06324
G1 X57.435 Y148.532 E.06324
G1 X57.293 Y146.836 E.0742
G1 X56.583 Y67.821 E3.44593
G1 X56.692 Y66.375 E.06324
G1 X56.896 Y65.173 E.05314
G1 X57.195 Y64.013 E.05227
G1 X57.597 Y62.862 E.05315
G1 X58.085 Y61.768 E.05226
G1 X58.674 Y60.7 E.05315
G1 X59.338 Y59.703 E.05226
G1 X60.097 Y58.749 E.05315
G1 X60.806 Y58.011 E.04465
G0 X61.128 Y58.319 F6000
G1 F1200
G1 X61.41 Y58.025 E.01778
G1 X62.48 Y57.115 E.06128
G1 X63.637 Y56.317 E.06127
G1 X64.727 Y55.709 E.05441
G1 X65.925 Y55.177 E.05717
G1 X67.259 Y54.735 E.06127
G1 X68.63 Y54.43 E.06128
G1 X70.026 Y54.264 E.06128
G1 X152.989 Y52.271 E3.61901
G1 X155.318 Y52.508 E.10206
G1 X156.441 Y52.767 E.0503
G1 X157.776 Y53.207 E.06127
G1 X158.865 Y53.683 E.05184
G1 X160.095 Y54.362 E.06128
G1 X161.251 Y55.162 E.06127
G1 X162.135 Y55.902 E.0503
G1 X163.727 Y57.618 E.10206
G1 X164.536 Y58.766 E.06127
G1 X165.128 Y59.797 E.05185
G1 X165.616 Y60.842 E.0503
G1 X166.091 Y62.165 E.06126
G1 X166.58 Y64.453 E.10207
G1 X166.686 Y65.803 E.05905
G1 X168.644 Y145.384 E3.4715
G1 X168.585 Y146.572 E.05186
G1 X168.384 Y147.962 E.06126
G1 X167.742 Y150.213 E.10206
G1 X166.733 Y152.324 E.10205
G1 X166.109 Y153.295 E.0503
G1 X165.244 Y154.402 E.06127
G1 X164.272 Y155.417 E.06128
G1 X163.203 Y156.329 E.06128
G1 X161.833 Y157.259 E.07225
G1 X160.591 Y157.916 E.06127
G1 X159.289 Y158.445 E.06127
G1 X157.94 Y158.84 E.06129
G1 X156.559 Y159.098 E.06128
G1 X154.981 Y159.22 E.069
G1 X71.455 Y160.422 E3.64289
G1 X70.053 Y160.329 E.06128
G1 X68.879 Y160.14 E.05183
G1 X66.634 Y159.479 E.10205
G1 X64.531 Y158.452 E.10206
G1 X62.63 Y157.088 E.10205
G1 X61.608 Y156.124 E.06128
G1 X60.689 Y155.061 E.06127
G1 X59.767 Y153.727 E.07071
G1 X59.098 Y152.492 E.06127
G1 X58.556 Y151.195 E.06128
G1 X58.148 Y149.851 E.06127
G1 X57.878 Y148.472 E.06128
G1 X57.739 Y146.821 E.07224
G1 X57.029 Y67.836 E3.44462
G1 X57.134 Y66.434 E.06128
G1 X57.333 Y65.263 E.05183
G1 X58.013 Y63.023 E.10206
G1 X59.057 Y60.929 E.10205
G1 X60.437 Y59.039 E.10206
G1 X61.086 Y58.363 E.04088
G1 E-.875 F3000
;WIPE_START
G0 F4800
G1 X61.41 Y58.025 E-.27769
G1 X61.511 Y57.94 E-.07856
;WIPE_END
G1 E-.01875 F3000
G0 X87.972 Y94.588 F6000
G1 X88.09 Y94.738
G1 X88.189 Y94.901
G1 X88.267 Y95.075
G1 X88.324 Y95.257
G1 X89.46 Y101.348
G1 X89.077 Y101.348
G1 X89.077 Y102.548
G1 X95.94 Y111.411
G1 X97.335 Y113.578
G1 E1.25 F2700
;TYPE:External perimeter
;WIDTH:0.499999
G0 F1200
G1 X97.335 Y112.678 E.03928
G1 X97.418 Y112.306 E.01661
G1 X97.589 Y112.143 E.01032
G1 X97.86 Y112.095 E.01196
G1 X98.195 Y112.165 E.01495
G1 X98.266 Y112.238 E.00444
G1 X98.374 Y112.436 E.00985
G1 X98.414 Y112.842 E.01777
G1 X97.385 Y113.545 E.05434
G0 X97.433 Y113.191 F6000
G1 X97.906 Y112.539
;TYPE:Perimeter
;WIDTH:0.618702
G0 F1200
G1 X97.835 Y112.539 E.0039
G1 X97.8 Y112.601 E.0039
G1 X97.835 Y112.662 E.0039
G1 X97.906 Y112.662 E.0039
G1 X97.941 Y112.601 E.0039
G1 E-.875 F3000
;WIPE_START
G0 F4800
G1 X97.906 Y112.662 E-.04194
G1 X97.835 Y112.662 E-.04194
G1 X97.8 Y112.601 E-.04194
G1 X97.835 Y112.539 E-.04194
G1 X97.906 Y112.539 E-.04194
;WIPE_END
G1 E-.16532 F3000
G0 X97.908 Y112.509 F6000
G1 X97.972 Y114.725
G1 X98.052 Y115.521
G1 X98.052 Y115.521
G1 X98.008 Y115.908
G1 E1.25 F2700
;TYPE:External perimeter
;WIDTH:0.499999
G0 F1200
G1 X97.848 Y115.908 E.00696
G1 X97.552 Y115.84 E.01326
G1 X97.475 Y115.752 E.0051
G1 X97.38 Y115.582 E.00846
G1 X97.339 Y115.154 E.01877
G1 X98.417 Y114.423 E.05682
G1 X98.417 Y115.298 E.03818
G1 X98.377 Y115.601 E.01332
G1 X98.252 Y115.802 E.01034
G1 X98.063 Y115.884 E.00899
G0 X97.899 Y115.791 F6000
G1 X97.927 Y115.334
;TYPE:Perimeter
;WIDTH:0.629188
G0 F1200
G1 X97.855 Y115.334 E.00405
G1 X97.819 Y115.397 E.00405
G1 X97.855 Y115.459 E.00405
G1 X97.927 Y115.459 E.00405
G1 X97.963 Y115.397 E.00405
G1 E-.875 F3000
;WIPE_START
G0 F4800
G1 X97.927 Y115.459 E-.04272
G1 X97.855 Y115.459 E-.04272
G1 X97.819 Y115.397 E-.04272
G1 X97.855 Y115.334 E-.04272
G1 X97.927 Y115.334 E-.04272
;WIPE_END
G1 E-.16142 F3000
G0 X98.01 Y115.468 F6000
G1 X99.941 Y115.368
G1 X101.526 Y117.284
G1 X101.558 Y117.322
G1 X101.682 Y117.457
G1 X101.888 Y117.672
G1 X101.987 Y117.771
G1 X102.061 Y117.809
G1 X102.686 Y117.981
G1 X110.832 Y117.892
G1 X111.931 Y117.39
G1 X112.163 Y115.57
G1 X118.668 Y116.421
G1 X117.998 Y117.9
G1 X125.629 Y117.9
G1 X130.835 Y115.878
G1 X133.113 Y115.505
G1 X133.471 Y115.922
G1 E1.25 F2700
;TYPE:External perimeter
;WIDTH:0.499999
G0 F1200
G1 X132.755 Y115.915 E.03122
G1 X132.635 Y115.841 E.00614
G1 X132.503 Y115.531 E.01469
G1 X132.468 Y114.972 E.02446
G1 X132.532 Y114.704 E.01203
G1 X132.673 Y114.467 E.01199
G1 X132.838 Y114.414 E.0076
G1 X133.471 Y114.414 E.02757
G1 X133.471 Y115.862 E.06315
G0 X133.102 Y115.767 F6000
G1 X132.974 Y115.371
;TYPE:Perimeter
;WIDTH:0.609004
G0 F1200
G1 X132.97 Y115.026 E.01874
G1 E-.875 F3000
;WIPE_START
G0 F4800
G1 X132.974 Y115.371 E-.20512
;WIPE_END
G1 E-.16988 F3000
G0 X132.895 Y115.429 F6000
G1 X131.039 Y114.361
G1 X129.315 Y113.461
G1 X127.783 Y112.317
G1 X127.488 Y112.507
G1 E1.25 F2700
;TYPE:External perimeter
;WIDTH:0.482177
G0 F1200
G1 X127.492 Y112.432 E.00316
G1 X127.587 Y112.248 E.00868
G1 X127.801 Y112.102 E.01086
;WIDTH:0.487066
G1 X128.105 Y112.06 E.01296
G1 X128.457 Y112.144 E.01534
G1 X128.546 Y112.283 E.00699
G1 X128.442 Y112.394 E.00641
G1 X128.022 Y112.502 E.01838
G1 X127.548 Y112.507 E.02007
G0 X127.526 Y112.442 F6000
G1 E-.875 F3000
;WIPE_START
G0 F4800
G1 X127.492 Y112.432 E-.05537
G1 X127.587 Y112.248 E-.12303
G1 X127.801 Y112.102 E-.15396
G1 X127.841 Y112.096 E-.02388
;WIPE_END
G1 E-.01875 F3000
G0 X127.849 Y112.132 F6000
G1 X125.987 Y112.868
G1 X124.96 Y113.295
G1 X122.952 Y113.71
G1 X122.958 Y114.128
G1 E1.25 F2700
;WIDTH:0.499999
G0 F1200
G1 X122.669 Y114.067 E.01287
G1 X122.529 Y113.928 E.00861
G1 X122.431 Y113.664 E.01228
G1 X122.424 Y112.611 E.04591
G1 X122.447 Y112.434 E.00781
G1 X122.557 Y112.17 E.01248
G1 X122.725 Y112.062 E.00871
G1 X123.023 Y112.028 E.01306
G1 X123.248 Y112.105 E.01039
G1 X123.373 Y112.265 E.00884
G1 X123.43 Y112.639 E.0165
G1 X123.414 Y113.715 E.04695
G1 X123.315 Y113.979 E.01231
G1 X123.16 Y114.091 E.00831
G1 X123.017 Y114.117 E.00636
G0 X122.812 Y113.871 F6000
G1 X122.927 Y113.614
;TYPE:Perimeter
;WIDTH:0.613292
G0 F1200
G1 X122.932 Y112.556 E.0579
G1 E-.875 F3000
;WIPE_START
G0 F4800
G1 X122.927 Y112.642 E-.05133
G1 X122.927 Y113.155 E-.30492
;WIPE_END
G1 E-.01875 F3000
G0 X122.762 Y113.155 F6000
G1 X120.899 Y113.551
G1 X119.942 Y113.738
G1 X117.934 Y113.71
G1 X117.94 Y114.128
G1 E1.25 F2700
;TYPE:External perimeter
;WIDTH:0.499999
G0 F1200
G1 X117.651 Y114.067 E.01287
G1 X117.511 Y113.928 E.00861
G1 X117.413 Y113.664 E.01228
G1 X117.406 Y112.611 E.04591
G1 X117.429 Y112.434 E.00781
G1 X117.54 Y112.17 E.01248
G1 X117.707 Y112.062 E.00871
G1 X118.005 Y112.028 E.01306
G1 X118.23 Y112.105 E.01039
G1 X118.356 Y112.265 E.00884
G1 X118.412 Y112.639 E.0165
G1 X118.397 Y113.715 E.04695
G1 X118.297 Y113.979 E.01231
G1 X118.143 Y114.091 E.00831
G1 X117.999 Y114.117 E.00636
G0 X117.794 Y113.871 F6000
G1 X117.909 Y113.614
;TYPE:Perimeter
;WIDTH:0.613292
G0 F1200
G1 X117.914 Y112.556 E.0579
G1 E-.875 F3000
;WIPE_START
G0 F4800
G1 X117.909 Y112.642 E-.05133
G1 X117.909 Y113.155 E-.30492
;WIPE_END
G1 E-.01875 F3000
G0 X117.745 Y113.155 F6000
G1 X117.187 Y110.249
G1 X113.637 Y95.39
