; generated by PrusaSlicer 2.5.1 on 2024-01-28 at 08:31:47 UTC

; 

; external perimeters extrusion width = 0.40mm
; perimeters extrusion width = 0.40mm
; infill extrusion width = 0.50mm
; solid infill extrusion width = 0.50mm
; top infill extrusion width = 0.50mm
; first layer extrusion width = 0.50mm

M107
;TYPE:Custom
G90 ; use absolute coordinates
M83 ; extruder relative mode
M140 S55 ; set bed temp
M190 S55 ; wait for bed temp to stabilize
M104 S150 ; set temporary nozzle temp to prevent oozing during homing
G4 S10 ; allow partial nozzle warmup
G28 ; home all axis
G29 L0; load slot 1
G29 A ; actiavte UBL
;G29 J ; tilt by 3 points
G0 Z50 F240
G0 X2 Y10 F3000
M104 S205 ; set final nozzle temp
M109 S205 ; wait for nozzle temp to stabilize
G0 Z0.28 F240
G92 E0
G1 Y140 E10 F1500 ; prime the nozzle
G0 X2.3 F5000
G92 E0
G1 Y10 E10 F1200 ; prime the nozzle
G92 E0
M900 K0.073
G21 ; set units to millimeters
G90 ; use absolute coordinates
M83 ; use relative distances for extrusion
; Filament gcode
M900 K0.073
M107
;LAYER_CHANGE
;Z:0.25
;HEIGHT:0.25
;BEFORE_LAYER_CHANGE

;0.25


G0 Z.25 F720
;AFTER_LAYER_CHANGE
;0.25
G92 E0

G1 E-1.25 F3000
G0 X82.956 Y81.031 F6000
G1 E1.25 F2700
M204 P500
;TYPE:Skirt/Brim
;WIDTH:0.5
G0 F1200
G1 X83.64 Y80.458 E.03892
G1 X84.91 Y79.61 E.0666
G1 X86.724 Y78.774 E.08708
G1 X88.194 Y78.359 E.06661
G1 X89.293 Y78.185 E.04854
G1 X90.5 Y78.118 E.05271
G1 X129.823 Y78.125 E1.71485
G1 X131.575 Y78.313 E.07684
G1 X133.494 Y78.854 E.08692
G1 X135.09 Y79.61 E.07701
G1 X136.36 Y80.458 E.06661
G1 X137.036 Y81.024 E.03845
G1 X138.392 Y82.49 E.08708
G1 X139.355 Y83.966 E.07685
G1 X140.076 Y85.574 E.07685
G1 X140.34 Y86.415 E.03846
G1 X140.638 Y87.913 E.0666
G1 X140.732 Y89.35 E.0628
G1 X140.716 Y131.209 E1.82541
G1 X140.491 Y132.956 E.07685
G1 X140.076 Y134.426 E.06661
G1 X139.355 Y136.034 E.07685
G1 X138.392 Y137.51 E.07685
G1 X137.666 Y138.359 E.04872
G1 X136.545 Y139.396 E.0666
G1 X135.641 Y140.052 E.04872
G1 X134.321 Y140.792 E.06597
G1 X132.435 Y141.49 E.08771
G1 X130.937 Y141.788 E.0666
G1 X129.834 Y141.875 E.04825
G1 X89.941 Y141.866 E1.73967
G1 X88.425 Y141.687 E.06661
G1 X86.724 Y141.226 E.07685
G1 X85.116 Y140.505 E.07684
G1 X83.652 Y139.55 E.07622
G1 X82.174 Y138.186 E.08771
G1 X81.228 Y136.987 E.0666
G1 X80.645 Y136.034 E.04871
G1 X80.005 Y134.647 E.0666
G1 X79.66 Y133.585 E.04872
G1 X79.362 Y132.087 E.0666
G1 X79.275 Y130.973 E.04872
G1 X79.284 Y88.791 E1.83951
G1 X79.509 Y87.044 E.07684
G1 X79.924 Y85.574 E.06661
G1 X80.645 Y83.966 E.07685
G1 X81.608 Y82.49 E.07685
G1 X82.915 Y81.075 E.08401
G0 X83.242 Y81.377 F6000
G1 F1200
G1 X83.917 Y80.809 E.03846
G1 X85.128 Y79.999 E.06355
G1 X86.878 Y79.193 E.08403
G1 X88.281 Y78.797 E.06355
G1 X89.346 Y78.628 E.04702
G1 X90.5 Y78.565 E.05041
G1 X129.806 Y78.571 E1.71409
G1 X131.488 Y78.751 E.07379
G1 X133.339 Y79.273 E.08386
G1 X134.872 Y79.999 E.07396
G1 X136.083 Y80.809 E.06355
G1 X136.733 Y81.352 E.03693
G1 X138.041 Y82.767 E.08403
G1 X138.966 Y84.184 E.07379
G1 X139.657 Y85.728 E.07379
G1 X139.91 Y86.536 E.03693
G1 X140.194 Y87.966 E.06355
G1 X140.285 Y89.35 E.0605
G1 X140.27 Y131.191 E1.82465
G1 X140.053 Y132.869 E.07379
G1 X139.657 Y134.272 E.06355
G1 X138.966 Y135.816 E.07379
G1 X138.041 Y137.233 E.0738
G1 X137.338 Y138.056 E.04719
G1 X136.268 Y139.045 E.06355
G1 X135.393 Y139.681 E.04719
G1 X134.134 Y140.387 E.06294
G1 X132.314 Y141.06 E.08463
G1 X130.884 Y141.345 E.06355
G1 X129.816 Y141.429 E.04675
G1 X89.959 Y141.42 E1.73811
G1 X88.512 Y141.249 E.06355
G1 X86.878 Y140.807 E.07379
G1 X85.334 Y140.116 E.07379
G1 X83.928 Y139.199 E.07319
G1 X82.502 Y137.883 E.08464
G1 X81.6 Y136.739 E.06355
G1 X81.034 Y135.816 E.04719
G1 X80.424 Y134.493 E.06354
G1 X80.09 Y133.464 E.04719
G1 X79.806 Y132.034 E.06355
G1 X79.721 Y130.956 E.04719
G1 X79.73 Y88.809 E1.83798
G1 X79.947 Y87.131 E.07379
G1 X80.343 Y85.728 E.06355
G1 X81.034 Y84.184 E.07379
G1 X81.959 Y82.767 E.07379
G1 X83.202 Y81.421 E.07987
G0 X83.529 Y81.723 F6000
G1 F1200
G1 X84.193 Y81.159 E.038
G1 X85.347 Y80.389 E.0605
G1 X87.033 Y79.611 E.08097
G1 X88.368 Y79.235 E.0605
G1 X89.398 Y79.072 E.04549
G1 X90.5 Y79.011 E.04812
G1 X129.788 Y79.017 E1.71332
G1 X131.401 Y79.189 E.07074
G1 X133.185 Y79.692 E.08081
G1 X134.653 Y80.389 E.07091
G1 X135.807 Y81.159 E.0605
G1 X136.43 Y81.68 E.0354
G1 X137.691 Y83.043 E.08098
G1 X138.576 Y84.402 E.07074
G1 X139.239 Y85.883 E.07074
G1 X139.481 Y86.658 E.0354
G1 X139.751 Y88.018 E.06049
G1 X139.839 Y89.35 E.05821
G1 X139.824 Y131.173 E1.82388
G1 X139.615 Y132.782 E.07074
G1 X139.239 Y134.117 E.0605
G1 X138.576 Y135.598 E.07074
G1 X137.691 Y136.957 E.07074
G1 X137.011 Y137.753 E.04566
G1 X135.992 Y138.695 E.06049
G1 X135.145 Y139.31 E.04566
G1 X133.947 Y139.982 E.05991
G1 X132.192 Y140.631 E.08155
G1 X130.832 Y140.901 E.0605
G1 X129.798 Y140.983 E.04525
G1 X89.977 Y140.974 E1.73656
G1 X88.599 Y140.811 E.0605
G1 X87.033 Y140.389 E.07074
G1 X85.552 Y139.726 E.07074
G1 X84.204 Y138.849 E.07016
G1 X82.83 Y137.58 E.08156
G1 X81.971 Y136.491 E.0605
G1 X81.424 Y135.598 E.04566
G1 X80.843 Y134.338 E.06049
G1 X80.519 Y133.342 E.04566
G1 X80.249 Y131.982 E.06049
G1 X80.167 Y130.938 E.04566
G1 X80.176 Y88.826 E1.83645
G1 X80.385 Y87.218 E.07074
G1 X80.761 Y85.883 E.0605
G1 X81.424 Y84.402 E.07074
G1 X82.309 Y83.043 E.07074
G1 X83.488 Y81.767 E.07574
G0 X83.815 Y82.069 F6000
G1 F1200
G1 X84.469 Y81.51 E.03755
G1 X85.565 Y80.778 E.05744
G1 X87.187 Y80.03 E.07792
G1 X88.455 Y79.673 E.05744
G1 X89.451 Y79.515 E.04396
G1 X90.5 Y79.457 E.04583
G1 X129.771 Y79.463 E1.71256
G1 X131.314 Y79.627 E.06768
G1 X133.03 Y80.11 E.07775
G1 X134.435 Y80.778 E.06785
G1 X135.093 Y81.192 E.03387
G1 X136.127 Y82.007 E.05744
G1 X137.34 Y83.319 E.07792
G1 X138.187 Y84.62 E.06768
G1 X138.531 Y85.316 E.03387
G1 X138.987 Y86.552 E.05744
G1 X139.308 Y88.07 E.06768
G1 X139.393 Y89.35 E.05592
G1 X139.378 Y131.156 E1.82312
G1 X139.177 Y132.695 E.06768
G1 X138.82 Y133.963 E.05744
G1 X138.187 Y135.38 E.06768
G1 X137.34 Y136.681 E.06769
G1 X136.683 Y137.45 E.04413
G1 X135.716 Y138.344 E.05744
G1 X134.897 Y138.939 E.04413
G1 X133.759 Y139.577 E.05688
G1 X132.071 Y140.201 E.07848
G1 X130.779 Y140.458 E.05744
G1 X129.779 Y140.537 E.04374
G1 X89.994 Y140.528 E1.73501
G1 X88.686 Y140.373 E.05744
G1 X87.187 Y139.97 E.06769
G1 X85.77 Y139.337 E.06768
G1 X84.48 Y138.498 E.06713
G1 X83.157 Y137.277 E.07848
G1 X82.342 Y136.243 E.05744
G1 X81.813 Y135.38 E.04413
G1 X81.262 Y134.184 E.05744
G1 X80.949 Y133.221 E.04414
G1 X80.692 Y131.93 E.05744
G1 X80.613 Y130.921 E.04413
G1 X80.622 Y88.844 E1.83492
G1 X80.823 Y87.305 E.06768
G1 X81.18 Y86.037 E.05744
G1 X81.813 Y84.62 E.06768
G1 X82.66 Y83.319 E.06768
G1 X83.774 Y82.113 E.0716
G0 X84.084 Y82.448 F6000
G1 F1200
G1 X84.561 Y82.006 E.02835
G1 X85.988 Y81.053 E.07487
G1 X87.823 Y80.293 E.08661
G1 X88.773 Y80.064 E.04261
G1 X89.999 Y79.919 E.05385
G1 X129.753 Y79.909 E1.73363
G1 X131.227 Y80.064 E.06463
G1 X132.876 Y80.529 E.0747
G1 X134.217 Y81.168 E.0648
G1 X135.824 Y82.335 E.08662
G1 X136.989 Y83.596 E.07487
G1 X137.797 Y84.838 E.06463
G1 X138.401 Y86.192 E.06463
G1 X138.865 Y88.123 E.08661
G1 X138.946 Y89.35 E.05363
G1 X138.941 Y130.903 E1.81209
G1 X138.786 Y132.377 E.06463
G1 X138.401 Y133.808 E.06463
G1 X137.797 Y135.162 E.06463
G1 X136.989 Y136.404 E.06463
G1 X136.355 Y137.147 E.0426
G1 X135.439 Y137.994 E.05438
G1 X134.649 Y138.568 E.0426
G1 X133.572 Y139.172 E.05385
G1 X131.95 Y139.771 E.0754
G1 X130.727 Y140.015 E.05439
G1 X129.761 Y140.091 E.04224
G1 X90.012 Y140.082 E1.73345
G1 X88.773 Y139.936 E.05439
G1 X87.342 Y139.551 E.06463
G1 X85.988 Y138.947 E.06463
G1 X84.756 Y138.147 E.0641
G1 X83.485 Y136.974 E.0754
G1 X82.713 Y135.995 E.05439
G1 X82.203 Y135.162 E.0426
G1 X81.68 Y134.029 E.05438
G1 X81.379 Y133.1 E.04261
G1 X81.135 Y131.877 E.05438
G1 X81.059 Y130.903 E.04261
G1 X81.068 Y88.862 E1.83339
G1 X81.26 Y87.392 E.06463
G1 X81.599 Y86.192 E.05439
G1 X82.203 Y84.838 E.06463
G1 X83.011 Y83.596 E.06463
G1 X83.637 Y82.862 E.04206
G1 X84.04 Y82.489 E.02396
G1 E-.875 F3000
;WIPE_START
G0 F4800
G1 X84.48 Y82.081 E-.35625
;WIPE_END
G1 E-.01875 F3000
G0 X90.713 Y133.4 F6000
G1 E1.25 F2700
;TYPE:External perimeter
;WIDTH:0.499999
G0 F1200
G1 X90.259 Y133.38 E.01981
G1 X89.655 Y133.266 E.02683
G1 X89.06 Y132.992 E.02854
G1 X88.718 Y132.743 E.01845
G1 X88.274 Y132.263 E.02853
G1 X88.051 Y131.898 E.01862
G1 X87.828 Y131.292 E.02818
G1 X87.75 Y130.636 E.0288
G1 X87.75 Y89.36 E1.80003
G1 X87.841 Y88.685 E.0297
G1 X88.049 Y88.106 E.02683
G1 X88.41 Y87.565 E.02835
G1 X88.887 Y87.124 E.02836
G1 X89.252 Y86.901 E.01862
G1 X89.858 Y86.678 E.0282
G1 X90.514 Y86.6 E.0288
G1 X129.49 Y86.6 E1.69968
G1 X130.141 Y86.677 E.0286
G1 X130.755 Y86.904 E.02854
G1 X131.116 Y87.126 E.01848
G1 X131.599 Y87.588 E.02915
G1 X131.949 Y88.102 E.0271
G1 X132.174 Y88.712 E.02837
G1 X132.241 Y89.134 E.01865
G1 X132.25 Y130.462 E1.80227
G1 X132.241 Y130.753 E.01267
G1 X132.16 Y131.312 E.02466
G1 X131.949 Y131.897 E.02711
G1 X131.588 Y132.438 E.02837
G1 X131.286 Y132.74 E.01862
G1 X130.748 Y133.099 E.02818
G1 X130.142 Y133.322 E.0282
G1 X129.486 Y133.4 E.0288
G1 X90.773 Y133.4 E1.68823
G0 X90.523 Y133.048 F6000
G1 X90.713 Y132.954
;TYPE:Perimeter
G0 F1200
G1 X90.14 Y132.923 E.02503
G1 X89.626 Y132.761 E.0235
G1 X89.151 Y132.506 E.02349
G1 X88.747 Y132.117 E.02447
G1 X88.455 Y131.703 E.02211
G1 X88.265 Y131.187 E.02397
G1 X88.196 Y130.61 E.02535
G1 X88.196 Y89.377 E1.79811
G1 X88.275 Y88.789 E.02588
G1 X88.444 Y88.317 E.02186
G1 X88.752 Y87.857 E.02413
G1 X89.033 Y87.597 E.01671
G1 X89.447 Y87.305 E.02211
G1 X89.963 Y87.115 E.02399
G1 X90.54 Y87.046 E.02535
G1 X129.463 Y87.047 E1.69739
G1 X130.036 Y87.114 E.02514
G1 X130.29 Y87.208 E.01183
G1 X130.722 Y87.408 E.02075
G1 X131.127 Y87.723 E.02237
G1 X131.444 Y88.131 E.02252
G1 X131.673 Y88.643 E.02448
G1 X131.794 Y89.17 E.02355
G1 X131.804 Y130.623 E1.80773
G1 X131.726 Y131.208 E.02576
G1 X131.554 Y131.686 E.02213
G1 X131.336 Y132.012 E.01711
G1 X131.001 Y132.393 E.02211
G1 X130.544 Y132.698 E.02397
G1 X130.037 Y132.885 E.02359
G1 X129.46 Y132.954 E.02534
G1 X90.773 Y132.954 E1.68708
G0 X90.713 Y132.507 F6000
G1 F1200
G1 X90.21 Y132.481 E.02197
G1 X89.731 Y132.318 E.02205
G1 X89.314 Y132.073 E.02112
G1 X88.924 Y131.614 E.02626
G1 X88.702 Y131.082 E.02512
G1 X88.643 Y130.584 E.0219
G1 X88.643 Y89.395 E1.7962
G1 X88.669 Y89.06 E.01465
G1 X88.783 Y88.667 E.01785
G1 X89.093 Y88.149 E.02633
G1 X89.536 Y87.774 E.02531
G1 X90.068 Y87.552 E.02514
G1 X90.567 Y87.493 E.0219
G1 X129.317 Y87.493 E1.68986
G1 X129.931 Y87.551 E.02689
G1 X130.135 Y87.627 E.00952
G1 X130.589 Y87.85 E.02206
G1 X130.999 Y88.26 E.02528
G1 X131.224 Y88.717 E.02221
G1 X131.348 Y89.205 E.02194
G1 X131.357 Y130.462 E1.79921
G1 X131.331 Y130.94 E.02086
G1 X131.159 Y131.474 E.02447
G1 X130.806 Y131.958 E.02611
G1 X130.34 Y132.298 E.02513
G1 X129.932 Y132.448 E.01899
G1 X129.433 Y132.507 E.02189
G1 X111.634 Y132.507 E.77619
;WIDTH:0.546684
G1 X111.439 Y132.484 E.00946
;WIDTH:0.593369
G1 X111.244 Y132.461 E.01036
;WIDTH:0.640054
G1 X111.049 Y132.437 E.01125
;WIDTH:0.686739
G1 X110.854 Y132.414 E.01215
G1 X110.427 Y132.427 E.02644
;WIDTH:0.660405
G1 X110 Y132.44 E.02534
;WIDTH:0.65707
G1 X109.434 Y132.429 E.03335
G1 X109.257 Y132.448 E.0105
;WIDTH:0.617803
G1 X109.08 Y132.468 E.00981
;WIDTH:0.578535
G1 X108.903 Y132.488 E.00913
;WIDTH:0.539267
G1 X108.727 Y132.507 E.00845
;WIDTH:0.499999
G1 X90.773 Y132.507 E.78293
G1 E-1.25 F3000
G0 X109.959 Y97.892 F6000
G1 E1.25 F2700
;TYPE:External perimeter
G0 F1200
G1 X109.524 Y97.855 E.01901
G1 X109.06 Y97.72 E.02111
G1 X108.641 Y97.507 E.02051
G1 X108.267 Y97.22 E.02052
G1 X107.949 Y96.862 E.02092
G1 X107.637 Y96.303 E.02788
G1 X107.493 Y95.819 E.02203
G1 X107.451 Y95.371 E.01964
G1 X107.498 Y94.861 E.0223
G1 X107.63 Y94.41 E.02052
G1 X107.844 Y93.991 E.02051
G1 X108.13 Y93.617 E.02052
G1 X108.48 Y93.303 E.02051
G1 X108.882 Y93.059 E.02052
G1 X109.332 Y92.891 E.02092
G1 X109.965 Y92.802 E.02788
G1 X110.489 Y92.848 E.02293
G1 X110.94 Y92.98 E.02052
G1 X111.359 Y93.193 E.02051
G1 X111.733 Y93.48 E.02052
G1 X112.047 Y93.83 E.02051
G1 X112.291 Y94.232 E.02051
G1 X112.458 Y94.677 E.02073
G1 X112.548 Y95.319 E.02825
G1 X112.507 Y95.819 E.02187
G1 X112.37 Y96.29 E.02141
G1 X112.157 Y96.709 E.02051
G1 X111.87 Y97.083 E.02052
G1 X111.52 Y97.397 E.02051
G1 X111.118 Y97.641 E.02051
G1 X110.673 Y97.808 E.02073
G1 X110.019 Y97.897 E.02878
G0 X109.764 Y98.241 F6000
G1 X109.933 Y98.33
;TYPE:Perimeter
G0 F1200
G1 X109.511 Y98.304 E.01844
G1 X108.976 Y98.164 E.0241
G1 X108.477 Y97.928 E.0241
G1 X108.029 Y97.604 E.0241
G1 X107.649 Y97.204 E.02407
G1 X107.247 Y96.521 E.03455
G1 X107.069 Y95.962 E.02559
G1 X107.006 Y95.412 E.02414
G1 X107.046 Y94.861 E.0241
G1 X107.186 Y94.326 E.0241
G1 X107.422 Y93.827 E.0241
G1 X107.746 Y93.379 E.0241
G1 X108.147 Y92.998 E.0241
G1 X108.61 Y92.698 E.0241
G1 X109.121 Y92.488 E.02407
G1 X109.903 Y92.36 E.03455
G1 X110.488 Y92.396 E.02559
G1 X111.024 Y92.536 E.02414
G1 X111.523 Y92.772 E.0241
G1 X111.971 Y93.096 E.0241
G1 X112.352 Y93.497 E.0241
G1 X112.652 Y93.96 E.0241
G1 X112.861 Y94.466 E.02387
G1 X112.99 Y95.257 E.03491
G1 X112.954 Y95.839 E.02546
G1 X112.814 Y96.374 E.0241
G1 X112.578 Y96.873 E.0241
G1 X112.254 Y97.321 E.0241
G1 X111.853 Y97.702 E.0241
G1 X111.39 Y98.002 E.0241
G1 X110.884 Y98.211 E.02387
G1 X110.093 Y98.34 E.03491
G1 X109.993 Y98.334 E.00441
G0 X109.917 Y98.77 F6000
G1 F1200
G1 X109.469 Y98.748 E.01955
G1 X108.854 Y98.593 E.02768
G1 X108.278 Y98.327 E.02768
G1 X107.76 Y97.96 E.02768
G1 X107.319 Y97.505 E.02765
G1 X106.858 Y96.738 E.039
G1 X106.64 Y96.084 E.03005
G1 X106.562 Y95.453 E.02775
G1 X106.602 Y94.819 E.02768
G1 X106.757 Y94.204 E.02768
G1 X107.023 Y93.628 E.02768
G1 X107.39 Y93.11 E.02768
G1 X107.846 Y92.668 E.02768
G1 X108.375 Y92.318 E.02768
G1 X108.96 Y92.072 E.02765
G1 X109.841 Y91.918 E.039
G1 X110.529 Y91.951 E.03005
G1 X111.146 Y92.107 E.02775
G1 X111.722 Y92.373 E.02768
G1 X112.24 Y92.74 E.02768
G1 X112.682 Y93.196 E.02768
G1 X113.032 Y93.725 E.02768
G1 X113.277 Y94.305 E.02745
G1 X113.432 Y95.194 E.03936
G1 X113.398 Y95.881 E.02996
G1 X113.243 Y96.496 E.02768
G1 X112.977 Y97.072 E.02768
G1 X112.61 Y97.59 E.02768
G1 X112.154 Y98.032 E.02768
G1 X111.625 Y98.382 E.02768
G1 X111.045 Y98.627 E.02745
G1 X110.156 Y98.782 E.03936
G1 X109.977 Y98.773 E.00779
G1 E-1.25 F3000
G0 X109.998 Y98.32 F6000
G1 X107.042 Y128.076
G1 X107.03 Y128.35
G1 X107.042 Y128.624
G1 X107.08 Y128.896
G1 X107.143 Y129.163
G1 X107.23 Y129.423
G1 X107.341 Y129.674
G1 X107.475 Y129.914
G1 X107.63 Y130.14
G1 X107.805 Y130.351
G1 X107.999 Y130.545
G1 X108.21 Y130.72
G1 X108.436 Y130.876
G1 X108.676 Y131.009
G1 X108.927 Y131.12
G1 X109.187 Y131.207
G1 X109.454 Y131.27
G1 X109.726 Y131.308
G1 X110 Y131.32
G1 X110.075 Y131.317
G1 X110.055 Y130.895
G1 E1.25 F2700
;TYPE:External perimeter
G0 F1200
G1 X109.511 Y130.852 E.02379
G1 X109.06 Y130.72 E.02052
G1 X108.633 Y130.501 E.02092
G1 X108.141 Y130.092 E.02788
G1 X107.822 Y129.674 E.02293
G1 X107.616 Y129.252 E.02052
G1 X107.49 Y128.798 E.02052
G1 X107.451 Y128.371 E.01873
G1 X107.498 Y127.861 E.0223
G1 X107.63 Y127.41 E.02052
G1 X107.844 Y126.991 E.02052
G1 X108.13 Y126.617 E.02052
G1 X108.48 Y126.303 E.02051
G1 X108.882 Y126.059 E.02052
G1 X109.332 Y125.891 E.02092
G1 X109.965 Y125.802 E.02788
G1 X110.476 Y125.845 E.02235
G1 X110.94 Y125.98 E.0211
G1 X111.359 Y126.193 E.02051
G1 X111.733 Y126.48 E.02052
G1 X112.047 Y126.83 E.02052
G1 X112.291 Y127.232 E.02051
G1 X112.458 Y127.677 E.02073
G1 X112.548 Y128.319 E.02825
G1 X112.502 Y128.839 E.02276
G1 X112.37 Y129.29 E.02052
G1 X112.156 Y129.709 E.02052
G1 X111.87 Y130.083 E.02051
G1 X111.52 Y130.397 E.02051
G1 X111.118 Y130.641 E.02051
G1 X110.673 Y130.808 E.02073
G1 X110.115 Y130.886 E.02457
G0 X109.864 Y131.246 F6000
G1 X110.021 Y131.335
;TYPE:Perimeter
G0 F1200
G1 X109.511 Y131.304 E.02228
G1 X108.976 Y131.164 E.0241
G1 X108.477 Y130.928 E.02407
G1 X107.856 Y130.436 E.03455
G1 X107.488 Y129.979 E.02559
G1 X107.231 Y129.489 E.02414
G1 X107.069 Y128.961 E.0241
G1 X107.006 Y128.412 E.0241
G1 X107.046 Y127.861 E.0241
