; generated by PrusaSlicer 2.5.1 on 2024-01-28 at 06:47:06 UTC

; 

; external perimeters extrusion width = 0.40mm
; perimeters extrusion width = 0.40mm
; infill extrusion width = 0.50mm
; solid infill extrusion width = 0.50mm
; top infill extrusion width = 0.50mm
; first layer extrusion width = 0.50mm

M107
;TYPE:Custom
G90 ; use absolute coordinates
M83 ; extruder relative mode
M140 S55 ; set bed temp
M190 S55 ; wait for bed temp to stabilize
M104 S150 ; set temporary nozzle temp to prevent oozing during homing
G4 S10 ; allow partial nozzle warmup
G28 ; home all axis
G29 L0; load slot 1
G29 A ; actiavte UBL
;G29 J ; tilt by 3 points
G0 Z50 F240
G0 X2 Y10 F3000
M104 S205 ; set final nozzle temp
M109 S205 ; wait for nozzle temp to stabilize
G0 Z0.28 F240
G92 E0
G1 Y140 E10 F1500 ; prime the nozzle
G0 X2.3 F5000
G92 E0
G1 Y10 E10 F1200 ; prime the nozzle
G92 E0
M900 K0.073
G21 ; set units to millimeters
G90 ; use absolute coordinates
M83 ; use relative distances for extrusion
; Filament gcode
M900 K0.073
M107
;LAYER_CHANGE
;Z:0.25
;HEIGHT:0.25
;BEFORE_LAYER_CHANGE

;0.25


G0 Z.25 F720
;AFTER_LAYER_CHANGE
;0.25
G92 E0

G1 E-1.25 F3000
G0 X82.332 Y81.643 F6000
G1 E1.25 F2700
M204 P500
;TYPE:Skirt/Brim
;WIDTH:0.5
G0 F1200
G1 X83.455 Y80.604 E.06674
G1 X85.116 Y79.495 E.08708
G1 X86.503 Y78.855 E.0666
G1 X87.339 Y78.574 E.03846
G1 X89.297 Y78.185 E.08708
G1 X90.5 Y78.118 E.05254
G1 X129.823 Y78.125 E1.71485
G1 X131.806 Y78.359 E.08709
G1 X133.497 Y78.855 E.07685
G1 X134.884 Y79.495 E.0666
G1 X135.641 Y79.948 E.03845
G1 X137.036 Y81.024 E.07685
G1 X138.246 Y82.305 E.07684
G1 X139.354 Y83.963 E.08695
G1 X140.076 Y85.574 E.07699
G1 X140.34 Y86.415 E.03845
G1 X140.638 Y87.913 E.0666
G1 X140.732 Y89.35 E.06279
G1 X140.716 Y131.209 E1.82541
G1 X140.491 Y132.956 E.07685
G1 X140.076 Y134.426 E.06661
G1 X139.355 Y136.034 E.07685
G1 X138.392 Y137.51 E.07685
G1 X137.666 Y138.359 E.04872
G1 X136.545 Y139.396 E.0666
G1 X134.884 Y140.505 E.08708
G1 X133.497 Y141.145 E.0666
G1 X132.435 Y141.49 E.04872
G1 X130.937 Y141.788 E.0666
G1 X129.832 Y141.875 E.04833
G1 X89.941 Y141.866 E1.73959
G1 X88.194 Y141.641 E.07684
G1 X86.724 Y141.226 E.06661
G1 X85.116 Y140.505 E.07684
G1 X83.64 Y139.542 E.07685
G1 X82.791 Y138.816 E.04872
G1 X81.754 Y137.695 E.0666
G1 X81.098 Y136.791 E.04872
G1 X80.357 Y135.469 E.06609
G1 X79.663 Y133.593 E.08722
G1 X79.362 Y132.087 E.06698
G1 X79.275 Y130.973 E.04872
G1 X79.284 Y88.791 E1.8395
G1 X79.509 Y87.044 E.07685
G1 X79.924 Y85.574 E.06661
G1 X80.645 Y83.966 E.07685
G1 X81.608 Y82.49 E.07685
G1 X82.293 Y81.689 E.04596
G0 X82.632 Y81.979 F6000
G1 F1200
G1 X83.732 Y80.955 E.06553
G1 X85.334 Y79.884 E.08403
G1 X86.657 Y79.274 E.06355
G1 X87.46 Y79.004 E.03693
G1 X89.35 Y78.628 E.08403
G1 X90.5 Y78.565 E.05024
G1 X129.806 Y78.571 E1.71408
G1 X131.719 Y78.797 E.08403
G1 X133.343 Y79.274 E.0738
G1 X134.666 Y79.884 E.06355
G1 X135.393 Y80.319 E.03693
G1 X136.733 Y81.352 E.0738
G1 X137.895 Y82.582 E.07379
G1 X138.964 Y84.181 E.08389
G1 X139.657 Y85.728 E.07393
G1 X139.91 Y86.536 E.03693
G1 X140.194 Y87.966 E.06355
G1 X140.285 Y89.35 E.0605
G1 X140.27 Y131.191 E1.82465
G1 X140.053 Y132.869 E.07379
G1 X139.657 Y134.272 E.06355
G1 X138.966 Y135.816 E.07379
G1 X138.041 Y137.233 E.07379
G1 X137.338 Y138.056 E.04719
G1 X136.268 Y139.045 E.06355
G1 X134.666 Y140.116 E.08403
G1 X133.343 Y140.726 E.06355
G1 X132.314 Y141.06 E.04719
G1 X130.884 Y141.345 E.06355
G1 X129.814 Y141.429 E.04683
G1 X89.959 Y141.42 E1.73804
G1 X88.281 Y141.203 E.07379
G1 X86.878 Y140.807 E.06355
G1 X85.334 Y140.116 E.07379
G1 X83.917 Y139.191 E.0738
G1 X83.094 Y138.488 E.04719
G1 X82.105 Y137.418 E.06355
G1 X81.469 Y136.543 E.04719
G1 X80.762 Y135.282 E.06305
G1 X80.092 Y133.471 E.08417
G1 X79.806 Y132.034 E.0639
G1 X79.721 Y130.956 E.04719
G1 X79.73 Y88.809 E1.83798
G1 X79.947 Y87.131 E.07379
G1 X80.343 Y85.728 E.06355
G1 X81.034 Y84.184 E.07379
G1 X81.959 Y82.767 E.07379
G1 X82.593 Y82.024 E.04258
G0 X82.932 Y82.314 F6000
G1 F1200
G1 X84.008 Y81.305 E.06431
G1 X85.552 Y80.274 E.08097
G1 X86.812 Y79.693 E.06049
G1 X87.581 Y79.433 E.0354
G1 X89.402 Y79.071 E.08097
G1 X90.5 Y79.011 E.04795
G1 X129.788 Y79.017 E1.71332
G1 X131.632 Y79.235 E.08098
G1 X133.188 Y79.693 E.07074
G1 X134.448 Y80.274 E.06049
G1 X135.145 Y80.69 E.0354
G1 X136.43 Y81.68 E.07074
G1 X137.545 Y82.858 E.07074
G1 X138.575 Y84.399 E.08084
G1 X139.239 Y85.883 E.07088
G1 X139.481 Y86.658 E.0354
G1 X139.751 Y88.018 E.06049
G1 X139.839 Y89.35 E.05821
G1 X139.824 Y131.173 E1.82388
G1 X139.615 Y132.782 E.07074
G1 X139.239 Y134.117 E.0605
G1 X138.576 Y135.598 E.07074
G1 X137.691 Y136.957 E.07074
G1 X137.011 Y137.753 E.04566
G1 X135.992 Y138.695 E.06049
G1 X134.448 Y139.726 E.08097
G1 X133.188 Y140.307 E.06049
G1 X132.192 Y140.631 E.04566
G1 X130.832 Y140.901 E.06049
G1 X129.796 Y140.983 E.04532
G1 X89.976 Y140.974 E1.73649
G1 X88.368 Y140.765 E.07074
G1 X87.033 Y140.389 E.0605
G1 X85.552 Y139.726 E.07074
G1 X84.193 Y138.841 E.07074
G1 X83.397 Y138.161 E.04566
G1 X82.455 Y137.142 E.06049
G1 X81.84 Y136.295 E.04566
G1 X81.167 Y135.094 E.06002
G1 X80.521 Y133.35 E.08111
G1 X80.249 Y131.982 E.06083
G1 X80.167 Y130.938 E.04566
G1 X80.176 Y88.827 E1.83645
G1 X80.385 Y87.218 E.07074
G1 X80.761 Y85.883 E.0605
G1 X81.424 Y84.402 E.07074
G1 X82.309 Y83.043 E.07074
G1 X82.893 Y82.359 E.0392
G0 X83.232 Y82.649 F6000
G1 F1200
G1 X83.315 Y82.552 E.00555
G1 X84.284 Y81.656 E.05758
G1 X85.77 Y80.663 E.07792
G1 X86.966 Y80.112 E.05744
G1 X87.702 Y79.863 E.03387
G1 X89.454 Y79.514 E.07792
G1 X90.5 Y79.457 E.04566
G1 X129.771 Y79.463 E1.71255
G1 X131.545 Y79.673 E.07792
G1 X133.034 Y80.112 E.06769
G1 X134.23 Y80.663 E.05744
G1 X134.897 Y81.061 E.03387
G1 X136.127 Y82.007 E.06769
G1 X137.194 Y83.134 E.06768
G1 X138.185 Y84.617 E.07778
G1 X138.82 Y86.037 E.06782
G1 X139.051 Y86.779 E.03387
G1 X139.308 Y88.071 E.05744
G1 X139.393 Y89.35 E.05592
G1 X139.378 Y131.156 E1.82312
G1 X139.177 Y132.695 E.06769
G1 X138.82 Y133.963 E.05744
G1 X138.187 Y135.38 E.06768
G1 X137.34 Y136.681 E.06769
G1 X136.127 Y137.993 E.07792
G1 X135.093 Y138.808 E.05744
G1 X134.23 Y139.337 E.04413
G1 X133.034 Y139.888 E.05744
G1 X132.071 Y140.201 E.04414
G1 X130.779 Y140.458 E.05744
G1 X129.778 Y140.537 E.04381
G1 X89.994 Y140.528 E1.73494
G1 X88.455 Y140.327 E.06768
G1 X87.187 Y139.97 E.05744
G1 X85.77 Y139.337 E.06768
G1 X84.469 Y138.49 E.06769
G1 X83.7 Y137.833 E.04413
G1 X82.806 Y136.866 E.05744
G1 X82.211 Y136.047 E.04413
G1 X81.572 Y134.907 E.05698
G1 X80.951 Y133.228 E.07806
G1 X80.692 Y131.929 E.05775
G1 X80.613 Y130.921 E.04413
G1 X80.622 Y88.844 E1.83492
G1 X80.823 Y87.305 E.06768
G1 X81.18 Y86.037 E.05744
G1 X81.813 Y84.62 E.06768
G1 X82.66 Y83.319 E.06768
G1 X83.193 Y82.695 E.03583
G0 X83.533 Y82.984 F6000
G1 F1200
G1 X83.643 Y82.855 E.0074
G1 X84.561 Y82.006 E.05452
G1 X85.988 Y81.053 E.07486
G1 X87.823 Y80.292 E.08662
G1 X89.507 Y79.958 E.07487
G1 X90.5 Y79.904 E.04337
G1 X129.753 Y79.909 E1.71179
G1 X131.458 Y80.11 E.07487
G1 X132.879 Y80.53 E.06463
G1 X134.649 Y81.432 E.08661
G1 X135.824 Y82.335 E.06463
G1 X136.844 Y83.411 E.06463
G1 X137.796 Y84.835 E.07473
G1 X138.401 Y86.192 E.06477
G1 X138.865 Y88.123 E.08661
G1 X138.946 Y89.35 E.05363
G1 X138.941 Y130.903 E1.81209
G1 X138.786 Y132.377 E.06463
G1 X138.401 Y133.808 E.06463
G1 X137.797 Y135.162 E.06463
G1 X136.989 Y136.404 E.06463
G1 X136.355 Y137.147 E.0426
G1 X135.439 Y137.994 E.05438
G1 X134.012 Y138.947 E.07487
G1 X132.879 Y139.47 E.05439
G1 X131.95 Y139.771 E.04261
G1 X130.727 Y140.015 E.05438
G1 X129.76 Y140.091 E.0423
G1 X90.012 Y140.082 E1.73339
G1 X88.542 Y139.89 E.06463
G1 X87.342 Y139.551 E.05439
G1 X85.988 Y138.947 E.06463
G1 X84.746 Y138.139 E.06463
G1 X84.003 Y137.505 E.0426
G1 X83.156 Y136.589 E.05438
G1 X82.582 Y135.799 E.0426
G1 X81.977 Y134.72 E.05395
G1 X81.38 Y133.107 E.07501
G1 X81.135 Y131.877 E.05468
G1 X81.059 Y130.903 E.04261
G1 X81.068 Y88.862 E1.83339
G1 X81.26 Y87.392 E.06463
G1 X81.599 Y86.192 E.05439
G1 X82.203 Y84.838 E.06463
G1 X83.011 Y83.596 E.06463
G1 X83.494 Y83.03 E.03245
G1 E-.875 F3000
;WIPE_START
G0 F4800
G1 X83.643 Y82.855 E-.13638
G1 X83.915 Y82.604 E-.21987
;WIPE_END
G1 E-.01875 F3000
G0 X101.245 Y99.779 F6000
G1 X101.365 Y99.885
G1 X101.471 Y100.005
G1 X129.512 Y133.397
G1 E1.25 F2700
;TYPE:External perimeter
;WIDTH:0.499999
G0 F1200
G1 X90.687 Y133.4 E1.69314
G1 X90.262 Y133.38 E.01857
G1 X89.652 Y133.265 E.02707
G1 X89.067 Y132.995 E.02807
G1 X88.553 Y132.591 E.02851
G1 X88.279 Y132.269 E.01845
G1 X87.959 Y131.698 E.02854
G1 X87.828 Y131.296 E.01845
G1 X87.75 Y130.636 E.02897
G1 X87.75 Y89.36 E1.80003
G1 X87.77 Y89.111 E.01087
G1 X87.885 Y88.502 E.02705
G1 X88.158 Y87.91 E.0284
G1 X88.407 Y87.568 E.01845
G1 X88.89 Y87.122 E.02867
G1 X89.248 Y86.903 E.01831
G1 X89.858 Y86.678 E.02837
G1 X90.514 Y86.6 E.0288
G1 X129.489 Y86.6 E1.69965
G1 X130.145 Y86.678 E.02883
G1 X130.548 Y86.809 E.01845
G1 X131.119 Y87.128 E.02854
G1 X131.599 Y87.588 E.029
G1 X131.949 Y88.101 E.02705
G1 X132.174 Y88.712 E.0284
G1 X132.241 Y89.134 E.01865
G1 X132.241 Y130.753 E1.81494
G1 X132.159 Y131.313 E.02469
G1 X131.95 Y131.897 E.02705
G1 X131.59 Y132.435 E.02821
G1 X131.113 Y132.876 E.02837
G1 X130.752 Y133.097 E.01845
G1 X130.142 Y133.322 E.02837
G1 X129.572 Y133.39 E.02501
G0 X129.286 Y133.067 F6000
G1 X129.46 Y132.954
;TYPE:Perimeter
G0 F1200
G1 X90.687 Y132.954 E1.69083
G1 X90.297 Y132.935 E.01704
G1 X89.799 Y132.841 E.02209
G1 X89.302 Y132.612 E.02387
G1 X88.755 Y132.14 E.0315
G1 X88.452 Y131.665 E.02458
G1 X88.266 Y131.2 E.02183
G1 X88.196 Y130.61 E.0259
G1 X88.196 Y89.377 E1.79811
G1 X88.227 Y88.99 E.01693
G1 X88.39 Y88.472 E.02368
G1 X88.643 Y88.002 E.02329
G1 X89.038 Y87.592 E.02481
G1 X89.444 Y87.306 E.02164
G1 X89.963 Y87.115 E.02415
G1 X90.54 Y87.046 E.02534
G1 X129.316 Y87.046 E1.69097
G1 X129.608 Y87.064 E.01274
G1 X130.209 Y87.168 E.02659
G1 X130.693 Y87.402 E.02347
G1 X131.127 Y87.723 E.02353
G1 X131.443 Y88.131 E.02251
G1 X131.673 Y88.643 E.0245
G1 X131.794 Y89.169 E.02355
G1 X131.804 Y130.623 E1.80774
G1 X131.725 Y131.209 E.02578
G1 X131.554 Y131.685 E.02208
G1 X131.248 Y132.143 E.024
G1 X130.965 Y132.405 E.01684
G1 X130.556 Y132.694 E.02183
G1 X130.037 Y132.885 E.02415
G1 X129.519 Y132.947 E.02273
G1 E-1.25 F3000
G0 X110.081 Y94.897 F6000
G1 E1.25 F2700
;TYPE:External perimeter
G0 F1200
G1 X109.549 Y94.868 E.02325
G1 X109.039 Y94.754 E.02279
G1 X108.324 Y94.433 E.0342
G1 X107.699 Y93.943 E.03459
G1 X107.215 Y93.322 E.03433
G1 X106.974 Y92.834 E.02376
G1 X106.822 Y92.326 E.02312
G1 X106.754 Y91.801 E.0231
G1 X106.774 Y91.265 E.02339
G1 X106.877 Y90.752 E.02279
G1 X107.188 Y90.025 E.03451
G1 X107.49 Y89.587 E.02318
G1 X108.057 Y89.046 E.0342
G1 X108.747 Y88.653 E.03462
G1 X109.259 Y88.486 E.02349
G1 X109.79 Y88.408 E.02339
G1 X110.312 Y88.416 E.02279
G1 X111.078 Y88.586 E.03422
G1 X111.57 Y88.805 E.02349
G1 X112.011 Y89.098 E.02308
G1 X112.564 Y89.655 E.03423
G1 X112.859 Y90.105 E.02347
G1 X113.146 Y90.843 E.03452
G1 X113.237 Y91.367 E.02318
G1 X113.21 Y92.15 E.0342
G1 X112.995 Y92.908 E.03433
G1 X112.747 Y93.384 E.02343
G1 X112.424 Y93.814 E.02344
G1 X112.04 Y94.179 E.0231
G1 X111.603 Y94.477 E.02308
G1 X110.878 Y94.778 E.0342
G1 X110.141 Y94.89 E.03254
G0 X109.9 Y95.253 F6000
G1 X110.064 Y95.335
;TYPE:Perimeter
G0 F1200
G1 X109.521 Y95.313 E.0237
G1 X108.939 Y95.189 E.02593
G1 X108.138 Y94.839 E.03813
G1 X107.421 Y94.292 E.03932
G1 X106.861 Y93.594 E.03904
G1 X106.572 Y93.028 E.0277
G1 X106.393 Y92.452 E.02631
G1 X106.311 Y91.855 E.02627
G1 X106.328 Y91.246 E.02659
G1 X106.44 Y90.662 E.02593
G1 X106.778 Y89.847 E.03847
G1 X107.124 Y89.33 E.02712
G1 X107.752 Y88.721 E.03813
G1 X108.529 Y88.263 E.03934
G1 X109.125 Y88.061 E.02745
G1 X109.727 Y87.966 E.02659
G1 X110.322 Y87.969 E.02593
G1 X111.178 Y88.151 E.03816
G1 X111.756 Y88.399 E.02744
G1 X112.26 Y88.727 E.02624
G1 X112.883 Y89.343 E.03817
G1 X113.234 Y89.864 E.02742
G1 X113.563 Y90.683 E.03849
G1 X113.677 Y91.294 E.02712
G1 X113.656 Y92.168 E.03813
G1 X113.423 Y93.033 E.03904
G1 X113.141 Y93.594 E.02737
G1 X112.779 Y94.085 E.02664
G1 X112.346 Y94.504 E.02627
G1 X111.852 Y94.847 E.02624
G1 X111.047 Y95.191 E.03815
G1 X110.124 Y95.338 E.04076
G1 E-1.25 F3000
G0 X110.123 Y95.316 F6000
G1 X110.075 Y95.319
G1 X109.775 Y95.313
G1 X109.478 Y95.283
G1 X109.183 Y95.228
G1 X108.894 Y95.15
G1 X108.613 Y95.048
G1 X108.34 Y94.924
G1 X108.079 Y94.777
G1 X107.831 Y94.61
G1 X107.597 Y94.424
G1 X107.378 Y94.219
G1 X107.178 Y93.996
G1 X106.996 Y93.759
G1 X106.834 Y93.507
G1 X106.693 Y93.242
G1 X106.574 Y92.968
G1 X106.478 Y92.684
G1 X106.406 Y92.394
G1 X106.357 Y92.098
G1 X106.333 Y91.8
G1 X106.333 Y91.5
G1 X106.357 Y91.202
G1 X106.406 Y90.906
G1 X106.478 Y90.616
G1 X106.574 Y90.332
G1 X106.693 Y90.058
G1 X106.834 Y89.793
G1 X106.996 Y89.542
G1 X107.178 Y89.304
G1 X107.378 Y89.081
G1 X107.596 Y88.876
G1 X107.831 Y88.69
G1 X108.079 Y88.523
G1 X108.34 Y88.376
G1 X108.613 Y88.252
G1 X108.894 Y88.15
G1 X109.183 Y88.072
G1 X109.216 Y88.066
G1 X109.221 Y88.065
G1 X109.124 Y87.547
G1 E1.25 F2700
;WIDTH:0.607932
G0 F1200
G1 X109.393 Y87.528 E.01459
;WIDTH:0.569592
G1 X109.662 Y87.508 E.01359
;WIDTH:0.531252
G1 X110.331 Y87.508 E.03123
;WIDTH:0.558848
G1 X110.562 Y87.522 E.01142
G1 E-1.25 F3000
G0 X110.562 Y87.02 F6000
G1 X131.83 Y89.363
G1 X129.487 Y132.98
G1 X129.433 Y132.98
G1 X129.433 Y132.507
G1 E1.25 F2700
;WIDTH:0.499999
G0 F1200
G1 X90.622 Y132.507 E1.6925
G1 X90.092 Y132.453 E.02324
G1 X89.536 Y132.229 E.02614
G1 X89.175 Y131.944 E.02006
G1 X88.898 Y131.547 E.02111
G1 X88.704 Y131.104 E.0211
G1 X88.643 Y130.584 E.02284
G1 X88.643 Y89.395 E1.7962
G1 X88.669 Y89.06 E.01463
G1 X88.822 Y88.603 E.02103
G1 X89.077 Y88.164 E.02215
G1 X89.535 Y87.774 E.02625
G1 X90.068 Y87.552 E.02518
G1 X90.567 Y87.493 E.02189
G1 X108.475 Y87.493 E.78096
;WIDTH:0.535977
G1 X108.691 Y87.511 E.01024
;WIDTH:0.571955
G1 X108.908 Y87.529 E.011
;WIDTH:0.607932
G1 X109.124 Y87.547 E.01176
G1 X108.98 Y87.604 E.00838
;WIDTH:0.565544
G1 X108.646 Y87.739 E.01805
;WIDTH:0.532772
G1 X108.311 Y87.874 E.0169
;WIDTH:0.499999
G1 X107.446 Y88.396 E.04408
G1 X106.759 Y89.074 E.04207
G1 X106.369 Y89.669 E.03106
G1 X106.003 Y90.571 E.04244
G1 X105.882 Y91.227 E.02908
G1 X105.868 Y91.91 E.02978
G1 X105.965 Y92.578 E.02943
G1 X106.17 Y93.222 E.02951
G1 X106.507 Y93.865 E.03164
G1 X106.952 Y94.447 E.03198
G1 X107.143 Y94.641 E.01185
G1 X107.721 Y95.102 E.03223
G1 X107.953 Y95.245 E.01188
G1 X108.84 Y95.624 E.04207
G1 X109.493 Y95.759 E.02908
G1 X110.221 Y95.781 E.03175
G1 X110.953 Y95.675 E.03226
G1 X111.216 Y95.604 E.01188
G1 X112.1 Y95.218 E.04209
G1 X112.652 Y94.829 E.02941
G1 X113.133 Y94.356 E.02943
G1 X113.536 Y93.803 E.02983
G1 X113.852 Y93.158 E.03131
G1 X114.035 Y92.532 E.02848
G1 X114.102 Y92.187 E.01533
G1 X114.118 Y91.222 E.04207
G1 X113.98 Y90.523 E.03106
G1 X113.61 Y89.623 E.04246
G1 X113.201 Y89.03 E.03138
G1 X112.509 Y88.357 E.04212
G1 X111.941 Y87.993 E.02941
G1 X111.277 Y87.715 E.0314
;WIDTH:0.529424
G1 X110.92 Y87.619 E.01721
;WIDTH:0.558848
G1 X110.562 Y87.522 E.01827
G1 X110.932 Y87.507 E.01827
;WIDTH:0.529424
G1 X111.302 Y87.493 E.01721
;WIDTH:0.499999
G1 X129.316 Y87.493 E.78558
G1 X129.555 Y87.507 E.01045
G1 X130.071 Y87.592 E.02278
G1 X130.606 Y87.864 E.02618
G1 X130.999 Y88.26 E.02433
G1 X131.224 Y88.715 E.02212
G1 X131.348 Y89.205 E.02203
G1 X131.357 Y130.462 E1.79921
G1 X131.331 Y130.94 E.02086
G1 X131.217 Y131.334 E.01791
G1 X130.907 Y131.851 E.02626
G1 X130.466 Y132.226 E.02524
G1 X129.932 Y132.448 E.02523
G1 X129.493 Y132.5 E.01928
G1 E-1.25 F3000
G0 X94.494 Y111.999 F6000
G1 E1.25 F2700
;TYPE:External perimeter
G0 F1200
G1 X94.149 Y111.948 E.01521
G1 X93.851 Y111.817 E.01422
G1 X93.597 Y111.612 E.01422
G1 X93.404 Y111.349 E.01422
G1 X93.287 Y111.045 E.01421
G1 X93.252 Y110.781 E.01162
G1 X93.259 Y100.617 E.44325
G1 X93.429 Y100.109 E.02335
G1 X93.649 Y99.839 E.0152
G1 X94.063 Y99.582 E.02126
G1 X94.499 Y99.5 E.01935
G1 X100.634 Y99.509 E.26754
G1 X101.005 Y99.608 E.01672
G1 X101.283 Y99.777 E.01422
G1 X101.514 Y100.025 E.01478
G1 X101.713 Y100.455 E.02065
G1 X101.75 Y101.05 E.02599
